%
O01001
(Using high feed G1 F500. instead of G0.)
(T1 D=1.002 CR=0.0312 - ZMIN=-0.285 - bullnose end mill)
(T2 D=0.1915 CR=0. - ZMIN=-0.237 - flat end mill)
N10 G90 G94 G17
N15 G20
N20 G28 G91 Z0.
N25 G90

(Adaptive1)
N30 T1 M6
N35 S5500 M3
N40 G54
N60 M8
N65 G1 X-1.603 Y-1.6444 F500.
N70 G0 G43 Z0.4 H1
N80 G0 Z0.2
N85 Z0.1404
N90 G1 Z0.0402 F77.
N95 Y-1.6441 Z0.0323
N100 X-1.6027 Y-1.6432 Z0.0245
N105 X-1.6024 Y-1.6417 Z0.0168
N110 X-1.6018 Y-1.6397 Z0.0092
N115 X-1.6012 Y-1.637 Z0.0019
N120 X-1.6003 Y-1.6339 Z-0.0053
N125 X-1.5994 Y-1.6301 Z-0.0122
N130 X-1.5983 Y-1.6259 Z-0.0187
N135 X-1.5971 Y-1.6212 Z-0.0249
N140 X-1.5958 Y-1.616 Z-0.0307
N145 X-1.5943 Y-1.6104 Z-0.036
N150 X-1.5928 Y-1.6044 Z-0.0409
N155 X-1.5912 Y-1.5981 Z-0.0452
N160 X-1.5895 Y-1.5914 Z-0.0491
N165 X-1.5877 Y-1.5845 Z-0.0524
N170 X-1.5859 Y-1.5774 Z-0.0551
N175 X-1.584 Y-1.57 Z-0.0572
N180 X-1.5821 Y-1.5625 Z-0.0588
N185 X-1.5801 Y-1.555 Z-0.0597
N190 X-1.5782 Y-1.5474 Z-0.06
N195 G3 X-1.4997 Y-1.0019 I-2.4781 J0.6348
N200 G1 Y-0.9974
N205 X-1.5183 Y-0.9257
N210 X-1.5342 Y-0.8533
N215 X-1.5477 Y-0.7804
N220 X-1.5593 Y-0.7073
N225 X-1.5692 Y-0.6338
N230 X-1.5777 Y-0.5602
N235 X-1.5849 Y-0.4865
N240 X-1.591 Y-0.4126
N245 X-1.5962 Y-0.3387
N250 X-1.6007 Y-0.2648
N255 X-1.6044 Y-0.1908
N260 X-1.6077 Y-0.1167
N265 X-1.6104 Y-0.0427
N270 X-1.6127 Y0.0314
N275 X-1.6098 Y0.1054
N280 X-1.5827 Y0.1744
N285 X-1.5801 Y0.1782
N290 X-1.5373 Y0.2387
N295 X-1.4858 Y0.2919
N300 X-1.4282 Y0.3385
N305 X-1.3662 Y0.3792
N310 X-1.3011 Y0.4145
N315 X-1.2336 Y0.445
N320 X-1.1643 Y0.4713
N325 X-1.0937 Y0.4939
N330 X-1.0222 Y0.5133
N335 X-0.95 Y0.5299
N340 X-0.8773 Y0.5442
N345 X-0.8042 Y0.5563
N350 X-0.7309 Y0.5667
N355 X-0.6573 Y0.5755
N360 X-0.5836 Y0.5831
N365 X-0.5098 Y0.5895
N370 X-0.4359 Y0.5949
N375 X-0.3619 Y0.5996
N380 X-0.2879 Y0.6035
N385 X-0.2139 Y0.6069
N390 X-0.1399 Y0.6097
N395 X-0.0658 Y0.6122
N400 X0.0082 Y0.6142
N405 X0.0823 Y0.616
N410 X0.1564 Y0.6174
N415 X0.2305 Y0.6187
N420 X0.3046 Y0.6198
N425 X0.3786 Y0.6207
N430 X0.4527 Y0.6215
N435 X0.5268 Y0.6221
N440 X0.6009 Y0.6227
N445 X0.675 Y0.6232
N450 X0.7491 Y0.6236
N455 X0.8232 Y0.624
N460 X0.8973 Y0.6243
N465 X1.0455 Y0.6247
N470 X1.064 Y0.6235
N475 X1.1372 Y0.6124
N480 X1.2027 Y0.5777
N485 X1.2063 Y0.5748
N490 X1.2633 Y0.5275
N495 X1.3135 Y0.473
N500 X1.3149 Y0.4712
N505 X1.3268 Y0.457
N510 X1.3405 Y0.4445
N515 X1.3556 Y0.4338
N520 X1.364 Y0.4287
N525 X1.3939 Y0.4093
N530 X1.4012 Y0.4039
N535 X1.4388 Y0.374
N540 X1.4539 Y0.3615
N545 X1.4742 Y0.3441
N550 X1.4839 Y0.3349
N555 X1.5048 Y0.3141
N560 X1.5138 Y0.3044
N565 X1.5311 Y0.2842
N570 X1.5438 Y0.2682
N575 X1.5532 Y0.2543
N580 X1.5733 Y0.2244
N585 X1.5907 Y0.1945
N590 X1.6038 Y0.1712
N595 X1.6221 Y0.1346
N600 X1.6338 Y0.1069
N605 X1.6346 Y0.1047
N610 X1.6452 Y0.0748
N615 X1.6535 Y0.0449
N620 X1.6602 Y0.015
N625 X1.6659 Y-0.015
N630 X1.6706 Y-0.0449
N635 X1.6745 Y-0.0748
N640 X1.6764 Y-0.1047
N645 X1.6772 Y-0.1346
N650 Y-0.1645
N655 Y-0.2244
N660 Y-0.2543
N665 X1.6765 Y-0.2842
N670 X1.6744 Y-0.3141
N675 X1.6706 Y-0.3441
N680 X1.666 Y-0.374
N685 X1.6602 Y-0.4039
N690 X1.6537 Y-0.4338
N695 X1.6452 Y-0.4637
N700 X1.6347 Y-0.4936
N705 X1.6338 Y-0.4959
N710 X1.6223 Y-0.5236
N715 X1.6038 Y-0.5603
N720 X1.5909 Y-0.5834
N725 X1.5734 Y-0.6133
N730 X1.5535 Y-0.6432
N735 X1.5438 Y-0.6574
N740 X1.5313 Y-0.6732
N745 X1.5138 Y-0.6936
N750 X1.505 Y-0.7031
N755 X1.4839 Y-0.7241
N760 X1.4745 Y-0.733
N765 X1.4539 Y-0.7507
N770 X1.4393 Y-0.7629
N775 X1.4015 Y-0.7928
N780 X1.3939 Y-0.7985
N785 X1.364 Y-0.818
N790 X1.3561 Y-0.8227
N795 X1.334 Y-0.8343
N800 X1.304 Y-0.8494
N805 X1.2965 Y-0.8527
N810 X1.274 Y-0.8615
N815 X1.2441 Y-0.8724
N820 X1.2141 Y-0.8827
N825 X1.1841 Y-0.8913
N830 X1.1541 Y-0.8986
N835 X1.1241 Y-0.9032
N840 X1.0942 Y-0.9069
N845 X1.0642 Y-0.9085
N850 X1.0342 Y-0.9087
N855 X1.0042 Y-0.9084
N860 X0.9743 Y-0.9071
N865 X0.9443 Y-0.904
N870 X0.9143 Y-0.8998
N875 X0.8843 Y-0.8928
N880 X0.8543 Y-0.8845
N885 X0.8244 Y-0.8745
N890 X0.7944 Y-0.8637
N895 X0.7661 Y-0.8527
N900 X0.7344 Y-0.8374
N905 X0.7068 Y-0.8227
N910 X0.6905 Y-0.8141
N915 X0.6852 Y-0.8113
N920 X0.6799 Y-0.8084
N925 X0.6745 Y-0.8057
N930 X0.6692 Y-0.8029
N935 X0.6637 Y-0.8002
N940 X0.658 Y-0.7974
N945 X0.6523 Y-0.7946
N950 X0.6464 Y-0.7918
N955 X0.6404 Y-0.789
N960 X0.6342 Y-0.7861
N965 X0.6279 Y-0.7833
N970 X0.6214 Y-0.7804
N975 X0.6148 Y-0.7775
N980 X0.608 Y-0.7746
N985 X0.6011 Y-0.7717
N990 X0.594 Y-0.7688
N995 X0.5867 Y-0.7659
N1003 X0.5793 Y-0.7629
N1005 X0.5716 Y-0.76
N1010 X0.5638 Y-0.757
N1015 X0.5557 Y-0.754
N1020 X0.5475 Y-0.7511
N1025 X0.539 Y-0.748
N1030 X0.5303 Y-0.745
N1035 X0.5214 Y-0.742
N1040 X0.5123 Y-0.739
N1045 X0.5029 Y-0.7359
N1050 X0.4932 Y-0.7329
N1055 X0.4832 Y-0.7298
N1060 X0.473 Y-0.7267
N1065 X0.4625 Y-0.7236
N1070 X0.4516 Y-0.7205
N1075 X0.4404 Y-0.7174
N1080 X0.4289 Y-0.7143
N1085 X0.417 Y-0.7111
N1090 X0.4048 Y-0.708
N1095 X0.3921 Y-0.7048
N1100 X0.379 Y-0.7016
N1105 X0.3654 Y-0.6985
N1110 X0.3514 Y-0.6953
N1115 X0.3369 Y-0.6921
N1120 X0.3218 Y-0.6889
N1125 X0.3062 Y-0.6857
N1130 X0.2899 Y-0.6825
N1135 X0.273 Y-0.6792
N1140 X0.2554 Y-0.676
N1145 X0.237 Y-0.6727
N1150 X0.2178 Y-0.6695
N1155 X0.1978 Y-0.6662
N1160 X0.1767 Y-0.6629
N1165 X0.1546 Y-0.6597
N1170 X0.1313 Y-0.6564
N1175 X0.1068 Y-0.6531
N1180 X0.0808 Y-0.6498
N1185 X0.0533 Y-0.6465
N1190 X0.0239 Y-0.6432
N1195 X-0.0074 Y-0.6398
N1200 X-0.0409 Y-0.6365
N1205 X-0.0771 Y-0.6332
N1210 X-0.1164 Y-0.6299
N1215 X-0.1592 Y-0.6265
N1220 X-0.2063 Y-0.6232
N1225 X-0.2585 Y-0.6198
N1230 X-0.3172 Y-0.6164
N1235 X-0.384 Y-0.6131
N1240 X-0.4581 Y-0.6099
N1245 X-0.5321 Y-0.6072
N1250 X-0.6062 Y-0.6049
N1255 X-0.6799 Y-0.5978
N1260 X-0.7519 Y-0.5803
N1265 X-0.8165 Y-0.544
N1270 X-0.8732 Y-0.4963
N1275 X-0.9225 Y-0.441
N1280 X-0.9301 Y-0.4241
N1285 X-0.9363 Y-0.4066
N1290 X-0.9409 Y-0.3887
N1295 X-0.944 Y-0.3705
N1300 X-0.9456 Y-0.352
N1305 Y-0.3335
N1310 X-0.944 Y-0.315
N1315 X-0.9409 Y-0.2968
N1320 X-0.9363 Y-0.2788
N1325 X-0.9302 Y-0.2613
N1330 X-0.8999 Y-0.1937
N1335 X-0.8508 Y-0.1382
N1340 X-0.795 Y-0.0895
N1345 X-0.7343 Y-0.047
N1350 X-0.6701 Y-0.01
N1355 X-0.6033 Y0.022
N1360 X-0.5345 Y0.0496
N1365 X-0.4644 Y0.0735
N1370 X-0.3932 Y0.094
N1375 X-0.3212 Y0.1117
N1380 X-0.2487 Y0.1269
N1385 X-0.1758 Y0.1399
N1390 X-0.1025 Y0.1511
N1395 X-0.029 Y0.1607
N1400 X0.0446 Y0.1689
N1405 X0.1184 Y0.1759
N1410 X0.1922 Y0.1819
N1415 X0.2661 Y0.187
N1420 X0.3401 Y0.1914
N1425 X0.4069 Y0.1948
N1430 X0.4265 Y0.1973
N1435 X0.4456 Y0.2028
N1440 X0.4636 Y0.2111
N1445 X0.4801 Y0.2221
N1450 X0.4948 Y0.2354
N1455 X0.5073 Y0.2509
N1460 X0.5246 Y0.276
N1465 X0.5317 Y0.2842
N1470 X0.5581 Y0.3141
N1475 X0.5846 Y0.34
N1480 X0.6145 Y0.3663
N1485 X0.6234 Y0.374
N1490 X0.6745 Y0.4135
N1495 X0.7045 Y0.432
N1500 X0.7074 Y0.4338
N1505 X0.7344 Y0.4482
N1510 X0.7667 Y0.4637
N1515 X0.7944 Y0.4744
N1520 X0.8244 Y0.4853
N1525 X0.8543 Y0.4953
N1530 X0.8843 Y0.5036
N1535 X0.9143 Y0.5106
N1540 X0.9443 Y0.5153
N1545 X0.9743 Y0.5178
N1550 X1.0042 Y0.5192
N1555 X1.0342 Y0.5194
N1560 X1.0642 Y0.5192
N1565 X1.0942 Y0.5173
N1570 X1.1241 Y0.5143
N1575 X1.1541 Y0.5094
N1580 X1.1841 Y0.502
N1585 X1.2137 Y0.4936
N1590 X1.2441 Y0.4832
N1595 X1.274 Y0.4722
N1600 G3 X1.3128 Y0.4676 I0.0311 J0.0953
N1605 G1 X1.3207 Y0.4682 Z-0.0597
N1610 X1.3285 Y0.4688 Z-0.0588
N1615 X1.3362 Y0.4694 Z-0.0572
N1620 X1.3437 Y0.47 Z-0.0551
N1625 X1.3511 Y0.4706 Z-0.0524
N1630 X1.3582 Y0.4711 Z-0.0491
N1635 X1.365 Y0.4717 Z-0.0452
N1640 X1.3716 Y0.4722 Z-0.0409
N1645 X1.3777 Y0.4726 Z-0.036
N1650 X1.3835 Y0.4731 Z-0.0307
N1655 X1.3888 Y0.4735 Z-0.0249
N1660 X1.3937 Y0.4739 Z-0.0187
N1665 X1.398 Y0.4742 Z-0.0122
N1670 X1.4019 Y0.4745 Z-0.0053
N1675 X1.4051 Y0.4748 Z0.0019
N1680 X1.4079 Y0.475 Z0.0092
N1685 X1.41 Y0.4751 Z0.0168
N1690 X1.4115 Y0.4753 Z0.0245
N1695 X1.4124 Z0.0323
N1700 X1.4127 Y0.4754 Z0.0402
N1705 G0 Z0.2
N1710 G1 X0.7816 Y-0.9395 F500.
N1715 G0 Z0.1404
N1720 G1 Z0.0402 F77.
N1725 X0.7814 Y-0.9393 Z0.0323
N1730 X0.781 Y-0.9385 Z0.0245
N1735 X0.7802 Y-0.9371 Z0.0168
N1740 X0.7792 Y-0.9352 Z0.0092
N1745 X0.7779 Y-0.9328 Z0.0019
N1750 X0.7763 Y-0.93 Z-0.0053
N1755 X0.7745 Y-0.9266 Z-0.0122
N1760 X0.7724 Y-0.9227 Z-0.0187
N1765 X0.7701 Y-0.9185 Z-0.0249
N1770 X0.7675 Y-0.9138 Z-0.0307
N1775 X0.7648 Y-0.9087 Z-0.036
N1780 X0.7618 Y-0.9033 Z-0.0409
N1785 X0.7587 Y-0.8975 Z-0.0452
N1790 X0.7554 Y-0.8915 Z-0.0491
N1795 X0.752 Y-0.8852 Z-0.0524
N1800 X0.7485 Y-0.8787 Z-0.0551
N1805 X0.7448 Y-0.8721 Z-0.0572
N1810 X0.7411 Y-0.8653 Z-0.0588
N1815 X0.7374 Y-0.8585 Z-0.0597
N1820 X0.7336 Y-0.8515 Z-0.06
N1825 G3 X0.7068 Y-0.8227 I-0.0696 J-0.0379
N1830 G1 X0.7045 Y-0.8213
N1835 X0.6745 Y-0.8027
N1840 X0.6231 Y-0.7629
N1845 X0.5846 Y-0.7292
N1850 X0.5581 Y-0.7031
N1855 X0.5315 Y-0.6732
N1860 X0.5246 Y-0.665
N1865 X0.4946 Y-0.6219
N1870 X0.489 Y-0.6133
N1875 X0.4716 Y-0.5834
N1880 X0.4646 Y-0.5714
N1885 X0.4553 Y-0.5535
N1890 X0.4402 Y-0.5236
N1895 X0.4347 Y-0.5117
N1900 X0.4274 Y-0.4936
N1905 X0.4173 Y-0.4637
N1910 X0.4088 Y-0.4338
N1915 X0.4047 Y-0.4166
N1920 X0.3965 Y-0.374
N1925 X0.3919 Y-0.3441
N1930 X0.3881 Y-0.3141
N1935 X0.386 Y-0.2842
N1940 X0.3853 Y-0.2543
N1945 Y-0.2244
N1950 Y-0.1645
N1955 Y-0.1346
N1960 X0.3861 Y-0.1047
N1965 X0.388 Y-0.0748
N1970 X0.3919 Y-0.0449
N1975 X0.3966 Y-0.015
N1980 X0.4047 Y0.0277
N1985 X0.409 Y0.0449
N1990 X0.4173 Y0.0748
N1995 X0.4179 Y0.0793 Z-0.0597
N2000 X0.4186 Y0.0838 Z-0.0589
N2005 X0.4192 Y0.0882 Z-0.0576
N2010 X0.4199 Y0.0923 Z-0.0558
N2015 Y0.0953 Z-0.0541
N2020 X0.42 Y0.0982 Z-0.0521
N2025 X0.4198 Y0.1016 Z-0.0492
N2030 X0.4195 Y0.1048 Z-0.0459
N2035 X0.4193 Y0.1075 Z-0.0422
N2040 X0.4191 Y0.1097 Z-0.0383
N2045 X0.419 Y0.1115 Z-0.0341
N2050 X0.4189 Y0.1128 Z-0.0297
N2055 X0.4188 Y0.1136 Z-0.0252
N2060 Y0.1139 Z-0.0207
N2065 G0 Z0.2
N2070 G1 X-1.603 Y-1.6444 F500.
N2075 G0 Z0.0804
N2080 G1 Z-0.0198 F77.
N2085 Y-1.6441 Z-0.0277
N2090 X-1.6027 Y-1.6432 Z-0.0355
N2095 X-1.6024 Y-1.6417 Z-0.0432
N2100 X-1.6018 Y-1.6397 Z-0.0508
N2105 X-1.6012 Y-1.637 Z-0.0581
N2110 X-1.6003 Y-1.6339 Z-0.0653
N2115 X-1.5994 Y-1.6301 Z-0.0722
N2120 X-1.5983 Y-1.6259 Z-0.0787
N2125 X-1.5971 Y-1.6212 Z-0.0849
N2130 X-1.5958 Y-1.616 Z-0.0907
N2135 X-1.5943 Y-1.6104 Z-0.096
N2140 X-1.5928 Y-1.6044 Z-0.1009
N2145 X-1.5912 Y-1.5981 Z-0.1052
N2150 X-1.5895 Y-1.5914 Z-0.1091
N2155 X-1.5877 Y-1.5845 Z-0.1124
N2160 X-1.5859 Y-1.5774 Z-0.1151
N2165 X-1.584 Y-1.57 Z-0.1172
N2170 X-1.5821 Y-1.5625 Z-0.1188
N2175 X-1.5801 Y-1.555 Z-0.1197
N2180 X-1.5782 Y-1.5474 Z-0.12
N2185 G3 X-1.4997 Y-1.0019 I-2.4781 J0.6348
N2190 G1 Y-0.9974
N2195 X-1.5183 Y-0.9257
N2200 X-1.5342 Y-0.8533
N2205 X-1.5477 Y-0.7804
N2210 X-1.5593 Y-0.7073
N2215 X-1.5692 Y-0.6338
N2220 X-1.5777 Y-0.5602
N2225 X-1.5849 Y-0.4865
N2230 X-1.591 Y-0.4126
N2235 X-1.5962 Y-0.3387
N2240 X-1.6007 Y-0.2648
N2245 X-1.6044 Y-0.1908
N2250 X-1.6077 Y-0.1167
N2255 X-1.6104 Y-0.0427
N2260 X-1.6127 Y0.0314
N2265 X-1.6098 Y0.1054
N2270 X-1.5827 Y0.1744
N2275 X-1.5801 Y0.1782
N2280 X-1.5373 Y0.2387
N2285 X-1.4858 Y0.2919
N2290 X-1.4282 Y0.3385
N2295 X-1.3662 Y0.3792
N2300 X-1.3011 Y0.4145
N2305 X-1.2336 Y0.445
N2310 X-1.1643 Y0.4713
N2315 X-1.0937 Y0.4939
N2320 X-1.0222 Y0.5133
N2325 X-0.95 Y0.5299
N2330 X-0.8773 Y0.5442
N2335 X-0.8042 Y0.5563
N2340 X-0.7309 Y0.5667
N2345 X-0.6573 Y0.5755
N2350 X-0.5836 Y0.5831
N2355 X-0.5098 Y0.5895
N2360 X-0.4359 Y0.5949
N2365 X-0.3619 Y0.5996
N2370 X-0.2879 Y0.6035
N2375 X-0.2139 Y0.6069
N2380 X-0.1399 Y0.6097
N2385 X-0.0658 Y0.6122
N2390 X0.0082 Y0.6142
N2395 X0.0823 Y0.616
N2400 X0.1564 Y0.6174
N2405 X0.2305 Y0.6187
N2410 X0.3046 Y0.6198
N2415 X0.3786 Y0.6207
N2420 X0.4527 Y0.6215
N2425 X0.5268 Y0.6221
N2430 X0.6009 Y0.6227
N2435 X0.675 Y0.6232
N2440 X0.7491 Y0.6236
N2445 X0.8232 Y0.624
N2450 X0.8973 Y0.6243
N2455 X1.0455 Y0.6247
N2460 X1.064 Y0.6235
N2465 X1.1372 Y0.6124
N2470 X1.2027 Y0.5777
N2475 X1.2063 Y0.5748
N2480 X1.2633 Y0.5275
N2485 X1.3135 Y0.473
N2490 X1.3149 Y0.4712
N2495 X1.3268 Y0.457
N2500 X1.3405 Y0.4445
N2505 X1.3556 Y0.4338
N2510 X1.364 Y0.4287
N2515 X1.3939 Y0.4093
N2520 X1.4012 Y0.4039
N2525 X1.4388 Y0.374
N2530 X1.4539 Y0.3615
N2535 X1.4742 Y0.3441
N2540 X1.4839 Y0.3349
N2545 X1.5048 Y0.3141
N2550 X1.5138 Y0.3044
N2555 X1.5311 Y0.2842
N2560 X1.5438 Y0.2682
N2565 X1.5532 Y0.2543
N2570 X1.5733 Y0.2244
N2575 X1.5907 Y0.1945
N2580 X1.6038 Y0.1712
N2585 X1.6221 Y0.1346
N2590 X1.6338 Y0.1069
N2595 X1.6346 Y0.1047
N2600 X1.6452 Y0.0748
N2605 X1.6535 Y0.0449
N2610 X1.6602 Y0.015
N2615 X1.6659 Y-0.015
N2620 X1.6706 Y-0.0449
N2625 X1.6745 Y-0.0748
N2630 X1.6764 Y-0.1047
N2635 X1.6772 Y-0.1346
N2640 Y-0.1645
N2645 Y-0.2244
N2650 Y-0.2543
N2655 X1.6765 Y-0.2842
N2660 X1.6744 Y-0.3141
N2665 X1.6706 Y-0.3441
N2670 X1.666 Y-0.374
N2675 X1.6602 Y-0.4039
N2680 X1.6537 Y-0.4338
N2685 X1.6452 Y-0.4637
N2690 X1.6347 Y-0.4936
N2695 X1.6338 Y-0.4959
N2700 X1.6223 Y-0.5236
N2705 X1.6038 Y-0.5603
N2710 X1.5909 Y-0.5834
N2715 X1.5734 Y-0.6133
N2720 X1.5535 Y-0.6432
N2725 X1.5438 Y-0.6574
N2730 X1.5313 Y-0.6732
N2735 X1.5138 Y-0.6936
N2740 X1.505 Y-0.7031
N2745 X1.4839 Y-0.7241
N2750 X1.4745 Y-0.733
N2755 X1.4539 Y-0.7507
N2760 X1.4393 Y-0.7629
N2765 X1.4015 Y-0.7928
N2770 X1.3939 Y-0.7985
N2775 X1.364 Y-0.818
N2780 X1.3561 Y-0.8227
N2785 X1.334 Y-0.8343
N2790 X1.304 Y-0.8494
N2795 X1.2965 Y-0.8527
N2800 X1.274 Y-0.8615
N2805 X1.2441 Y-0.8724
N2810 X1.2141 Y-0.8827
N2815 X1.1841 Y-0.8913
N2820 X1.1541 Y-0.8986
N2825 X1.1241 Y-0.9032
N2830 X1.0942 Y-0.9069
N2835 X1.0642 Y-0.9085
N2840 X1.0342 Y-0.9087
N2845 X1.0042 Y-0.9084
N2850 X0.9743 Y-0.9071
N2855 X0.9443 Y-0.904
N2860 X0.9143 Y-0.8998
N2865 X0.8843 Y-0.8928
N2870 X0.8543 Y-0.8845
N2875 X0.8244 Y-0.8745
N2880 X0.7944 Y-0.8637
N2885 X0.7661 Y-0.8527
N2890 X0.7344 Y-0.8374
N2895 X0.7068 Y-0.8227
N2900 X0.6905 Y-0.8141
N2905 X0.6852 Y-0.8113
N2910 X0.6799 Y-0.8084
N2915 X0.6745 Y-0.8057
N2920 X0.6692 Y-0.8029
N2925 X0.6637 Y-0.8002
N2930 X0.658 Y-0.7974
N2935 X0.6523 Y-0.7946
N2940 X0.6464 Y-0.7918
N2945 X0.6404 Y-0.789
N2950 X0.6342 Y-0.7861
N2955 X0.6279 Y-0.7833
N2960 X0.6214 Y-0.7804
N2965 X0.6148 Y-0.7775
N2970 X0.608 Y-0.7746
N2975 X0.6011 Y-0.7717
N2980 X0.594 Y-0.7688
N2985 X0.5867 Y-0.7659
N2990 X0.5793 Y-0.7629
N2995 X0.5716 Y-0.76
N3000 X0.5638 Y-0.757
N3005 X0.5557 Y-0.754
N3010 X0.5475 Y-0.7511
N3015 X0.539 Y-0.748
N3020 X0.5303 Y-0.745
N3025 X0.5214 Y-0.742
N3030 X0.5123 Y-0.739
N3035 X0.5029 Y-0.7359
N3040 X0.4932 Y-0.7329
N3045 X0.4832 Y-0.7298
N3050 X0.473 Y-0.7267
N3055 X0.4625 Y-0.7236
N3060 X0.4516 Y-0.7205
N3065 X0.4404 Y-0.7174
N3070 X0.4289 Y-0.7143
N3075 X0.417 Y-0.7111
N3080 X0.4048 Y-0.708
N3085 X0.3921 Y-0.7048
N3090 X0.379 Y-0.7016
N3095 X0.3654 Y-0.6985
N3100 X0.3514 Y-0.6953
N3105 X0.3369 Y-0.6921
N3110 X0.3218 Y-0.6889
N3115 X0.3062 Y-0.6857
N3120 X0.2899 Y-0.6825
N3125 X0.273 Y-0.6792
N3130 X0.2554 Y-0.676
N3135 X0.237 Y-0.6727
N3140 X0.2178 Y-0.6695
N3145 X0.1978 Y-0.6662
N3150 X0.1767 Y-0.6629
N3155 X0.1546 Y-0.6597
N3160 X0.1313 Y-0.6564
N3165 X0.1068 Y-0.6531
N3170 X0.0808 Y-0.6498
N3175 X0.0533 Y-0.6465
N3180 X0.0239 Y-0.6432
N3185 X-0.0074 Y-0.6398
N3190 X-0.0409 Y-0.6365
N3195 X-0.0771 Y-0.6332
N3200 X-0.1164 Y-0.6299
N3205 X-0.1592 Y-0.6265
N3210 X-0.2063 Y-0.6232
N3215 X-0.2585 Y-0.6198
N3220 X-0.3172 Y-0.6164
N3225 X-0.384 Y-0.6131
N3230 X-0.4581 Y-0.6099
N3235 X-0.5321 Y-0.6072
N3240 X-0.6062 Y-0.6049
N3245 X-0.6799 Y-0.5978
N3250 X-0.7519 Y-0.5803
N3255 X-0.8165 Y-0.544
N3260 X-0.8732 Y-0.4963
N3265 X-0.9225 Y-0.441
N3270 X-0.9301 Y-0.4241
N3275 X-0.9363 Y-0.4066
N3280 X-0.9409 Y-0.3887
N3285 X-0.944 Y-0.3705
N3290 X-0.9456 Y-0.352
N3295 Y-0.3335
N3300 X-0.944 Y-0.315
N3305 X-0.9409 Y-0.2968
N3310 X-0.9363 Y-0.2788
N3315 X-0.9302 Y-0.2613
N3320 X-0.8999 Y-0.1937
N3325 X-0.8508 Y-0.1382
N3330 X-0.795 Y-0.0895
N3335 X-0.7343 Y-0.047
N3340 X-0.6701 Y-0.01
N3345 X-0.6033 Y0.022
N3350 X-0.5345 Y0.0496
N3355 X-0.4644 Y0.0735
N3360 X-0.3932 Y0.094
N3365 X-0.3212 Y0.1117
N3370 X-0.2487 Y0.1269
N3375 X-0.1758 Y0.1399
N3380 X-0.1025 Y0.1511
N3385 X-0.029 Y0.1607
N3390 X0.0446 Y0.1689
N3395 X0.1184 Y0.1759
N3400 X0.1922 Y0.1819
N3405 X0.2661 Y0.187
N3410 X0.3401 Y0.1914
N3415 X0.4069 Y0.1948
N3420 X0.4265 Y0.1973
N3425 X0.4456 Y0.2028
N3430 X0.4636 Y0.2111
N3435 X0.4801 Y0.2221
N3440 X0.4948 Y0.2354
N3445 X0.5073 Y0.2509
N3450 X0.5246 Y0.276
N3455 X0.5317 Y0.2842
N3460 X0.5581 Y0.3141
N3465 X0.5846 Y0.34
N3470 X0.6145 Y0.3663
N3475 X0.6234 Y0.374
N3480 X0.6745 Y0.4135
N3485 X0.7045 Y0.432
N3490 X0.7074 Y0.4338
N3495 X0.7344 Y0.4482
N3500 X0.7667 Y0.4637
N3505 X0.7944 Y0.4744
N3510 X0.8244 Y0.4853
N3515 X0.8543 Y0.4953
N3520 X0.8843 Y0.5036
N3525 X0.9143 Y0.5106
N3530 X0.9443 Y0.5153
N3535 X0.9743 Y0.5178
N3540 X1.0042 Y0.5192
N3545 X1.0342 Y0.5194
N3550 X1.0642 Y0.5192
N3555 X1.0942 Y0.5173
N3560 X1.1241 Y0.5143
N3565 X1.1541 Y0.5094
N3570 X1.1841 Y0.502
N3575 X1.2137 Y0.4936
N3580 X1.2441 Y0.4832
N3585 X1.274 Y0.4722
N3590 G3 X1.3128 Y0.4676 I0.0311 J0.0953
N3595 G1 X1.3207 Y0.4682 Z-0.1197
N3600 X1.3285 Y0.4688 Z-0.1188
N3605 X1.3362 Y0.4694 Z-0.1172
N3610 X1.3437 Y0.47 Z-0.1151
N3615 X1.3511 Y0.4706 Z-0.1124
N3620 X1.3582 Y0.4711 Z-0.1091
N3625 X1.365 Y0.4717 Z-0.1052
N3630 X1.3716 Y0.4722 Z-0.1009
N3635 X1.3777 Y0.4726 Z-0.096
N3640 X1.3835 Y0.4731 Z-0.0907
N3645 X1.3888 Y0.4735 Z-0.0849
N3650 X1.3937 Y0.4739 Z-0.0787
N3655 X1.398 Y0.4742 Z-0.0722
N3660 X1.4019 Y0.4745 Z-0.0653
N3665 X1.4051 Y0.4748 Z-0.0581
N3670 X1.4079 Y0.475 Z-0.0508
N3675 X1.41 Y0.4751 Z-0.0432
N3680 X1.4115 Y0.4753 Z-0.0355
N3685 X1.4124 Z-0.0277
N3690 X1.4127 Y0.4754 Z-0.0198
N3695 G0 Z0.2
N3700 G1 X0.7816 Y-0.9395 F500.
N3705 G0 Z0.0804
N3710 G1 Z-0.0198 F77.
N3715 X0.7814 Y-0.9393 Z-0.0277
N3720 X0.781 Y-0.9385 Z-0.0355
N3725 X0.7802 Y-0.9371 Z-0.0432
N3730 X0.7792 Y-0.9352 Z-0.0508
N3735 X0.7779 Y-0.9328 Z-0.0581
N3740 X0.7763 Y-0.93 Z-0.0653
N3745 X0.7745 Y-0.9266 Z-0.0722
N3750 X0.7724 Y-0.9227 Z-0.0787
N3755 X0.7701 Y-0.9185 Z-0.0849
N3760 X0.7675 Y-0.9138 Z-0.0907
N3765 X0.7648 Y-0.9087 Z-0.096
N3770 X0.7618 Y-0.9033 Z-0.1009
N3775 X0.7587 Y-0.8975 Z-0.1052
N3780 X0.7554 Y-0.8915 Z-0.1091
N3785 X0.752 Y-0.8852 Z-0.1124
N3790 X0.7485 Y-0.8787 Z-0.1151
N3795 X0.7448 Y-0.8721 Z-0.1172
N3800 X0.7411 Y-0.8653 Z-0.1188
N3805 X0.7374 Y-0.8585 Z-0.1197
N3810 X0.7336 Y-0.8515 Z-0.12
N3815 G3 X0.7068 Y-0.8227 I-0.0696 J-0.0379
N3820 G1 X0.7045 Y-0.8213
N3825 X0.6745 Y-0.8027
N3830 X0.6231 Y-0.7629
N3835 X0.5846 Y-0.7292
N3840 X0.5581 Y-0.7031
N3845 X0.5315 Y-0.6732
N3850 X0.5246 Y-0.665
N3855 X0.4946 Y-0.6219
N3860 X0.489 Y-0.6133
N3865 X0.4716 Y-0.5834
N3870 X0.4646 Y-0.5714
N3875 X0.4553 Y-0.5535
N3880 X0.4402 Y-0.5236
N3885 X0.4347 Y-0.5117
N3890 X0.4274 Y-0.4936
N3895 X0.4173 Y-0.4637
N3900 X0.4088 Y-0.4338
N3905 X0.4047 Y-0.4166
N3910 X0.3965 Y-0.374
N3915 X0.3919 Y-0.3441
N3920 X0.3881 Y-0.3141
N3925 X0.386 Y-0.2842
N3930 X0.3853 Y-0.2543
N3935 Y-0.2244
N3940 Y-0.1645
N3945 Y-0.1346
N3950 X0.3861 Y-0.1047
N3955 X0.388 Y-0.0748
N3960 X0.3919 Y-0.0449
N3965 X0.3966 Y-0.015
N3970 X0.4047 Y0.0277
N3975 X0.409 Y0.0449
N3980 X0.4173 Y0.0748
N3985 X0.4179 Y0.0793 Z-0.1197
N3990 X0.4186 Y0.0838 Z-0.1189
N3995 X0.4192 Y0.0882 Z-0.1176
N4000 X0.4199 Y0.0923 Z-0.1158
N4005 Y0.0953 Z-0.1141
N4010 X0.42 Y0.0982 Z-0.1121
N4015 X0.4198 Y0.1016 Z-0.1092
N4020 X0.4195 Y0.1048 Z-0.1059
N4025 X0.4193 Y0.1075 Z-0.1022
N4030 X0.4191 Y0.1097 Z-0.0983
N4035 X0.419 Y0.1115 Z-0.0941
N4040 X0.4189 Y0.1128 Z-0.0897
N4045 X0.4188 Y0.1136 Z-0.0852
N4050 Y0.1139 Z-0.0807
N4055 G0 Z0.2
N4060 G1 X-1.603 Y-1.6444 F500.
N4065 G0 Z0.0204
N4070 G1 Z-0.0798 F77.
N4075 Y-1.6441 Z-0.0877
N4080 X-1.6027 Y-1.6432 Z-0.0955
N4085 X-1.6024 Y-1.6417 Z-0.1032
N4090 X-1.6018 Y-1.6397 Z-0.1108
N4095 X-1.6012 Y-1.637 Z-0.1181
N4100 X-1.6003 Y-1.6339 Z-0.1253
N4105 X-1.5994 Y-1.6301 Z-0.1322
N4110 X-1.5983 Y-1.6259 Z-0.1387
N4115 X-1.5971 Y-1.6212 Z-0.1449
N4120 X-1.5958 Y-1.616 Z-0.1507
N4125 X-1.5943 Y-1.6104 Z-0.156
N4130 X-1.5928 Y-1.6044 Z-0.1609
N4135 X-1.5912 Y-1.5981 Z-0.1652
N4140 X-1.5895 Y-1.5914 Z-0.1691
N4145 X-1.5877 Y-1.5845 Z-0.1724
N4150 X-1.5859 Y-1.5774 Z-0.1751
N4155 X-1.584 Y-1.57 Z-0.1772
N4160 X-1.5821 Y-1.5625 Z-0.1788
N4165 X-1.5801 Y-1.555 Z-0.1797
N4170 X-1.5782 Y-1.5474 Z-0.18
N4175 G3 X-1.4997 Y-1.0019 I-2.4781 J0.6348
N4180 G1 Y-0.9974
N4185 X-1.5183 Y-0.9257
N4190 X-1.5342 Y-0.8533
N4195 X-1.5477 Y-0.7804
N4200 X-1.5593 Y-0.7073
N4205 X-1.5692 Y-0.6338
N4210 X-1.5777 Y-0.5602
N4215 X-1.5849 Y-0.4865
N4220 X-1.591 Y-0.4126
N4225 X-1.5962 Y-0.3387
N4230 X-1.6007 Y-0.2648
N4235 X-1.6044 Y-0.1908
N4240 X-1.6077 Y-0.1167
N4245 X-1.6104 Y-0.0427
N4250 X-1.6127 Y0.0314
N4255 X-1.6098 Y0.1054
N4260 X-1.5827 Y0.1744
N4265 X-1.5801 Y0.1782
N4270 X-1.5373 Y0.2387
N4275 X-1.4858 Y0.2919
N4280 X-1.4282 Y0.3385
N4285 X-1.3662 Y0.3792
N4290 X-1.3011 Y0.4145
N4295 X-1.2336 Y0.445
N4300 X-1.1643 Y0.4713
N4305 X-1.0937 Y0.4939
N4310 X-1.0222 Y0.5133
N4315 X-0.95 Y0.5299
N4320 X-0.8773 Y0.5442
N4325 X-0.8042 Y0.5563
N4330 X-0.7309 Y0.5667
N4335 X-0.6573 Y0.5755
N4340 X-0.5836 Y0.5831
N4345 X-0.5098 Y0.5895
N4350 X-0.4359 Y0.5949
N4355 X-0.3619 Y0.5996
N4360 X-0.2879 Y0.6035
N4365 X-0.2139 Y0.6069
N4370 X-0.1399 Y0.6097
N4375 X-0.0658 Y0.6122
N4380 X0.0082 Y0.6142
N4385 X0.0823 Y0.616
N4390 X0.1564 Y0.6174
N4395 X0.2305 Y0.6187
N4400 X0.3046 Y0.6198
N4405 X0.3786 Y0.6207
N4410 X0.4527 Y0.6215
N4415 X0.5268 Y0.6221
N4420 X0.6009 Y0.6227
N4425 X0.675 Y0.6232
N4430 X0.7491 Y0.6236
N4435 X0.8232 Y0.624
N4440 X0.8973 Y0.6243
N4445 X1.0455 Y0.6247
N4450 X1.064 Y0.6235
N4455 X1.1372 Y0.6124
N4460 X1.2027 Y0.5777
N4465 X1.2063 Y0.5748
N4470 X1.2633 Y0.5275
N4475 X1.3135 Y0.473
N4480 X1.3149 Y0.4712
N4485 X1.3268 Y0.457
N4490 X1.3405 Y0.4445
N4495 X1.3556 Y0.4338
N4500 X1.364 Y0.4287
N4505 X1.3939 Y0.4093
N4510 X1.4012 Y0.4039
N4515 X1.4388 Y0.374
N4520 X1.4539 Y0.3615
N4525 X1.4742 Y0.3441
N4530 X1.4839 Y0.3349
N4535 X1.5048 Y0.3141
N4540 X1.5138 Y0.3044
N4545 X1.5311 Y0.2842
N4550 X1.5438 Y0.2682
N4555 X1.5532 Y0.2543
N4560 X1.5733 Y0.2244
N4565 X1.5907 Y0.1945
N4570 X1.6038 Y0.1712
N4575 X1.6221 Y0.1346
N4580 X1.6338 Y0.1069
N4585 X1.6346 Y0.1047
N4590 X1.6452 Y0.0748
N4595 X1.6535 Y0.0449
N4600 X1.6602 Y0.015
N4605 X1.6659 Y-0.015
N4610 X1.6706 Y-0.0449
N4615 X1.6745 Y-0.0748
N4620 X1.6764 Y-0.1047
N4625 X1.6772 Y-0.1346
N4630 Y-0.1645
N4635 Y-0.2244
N4640 Y-0.2543
N4645 X1.6765 Y-0.2842
N4650 X1.6744 Y-0.3141
N4655 X1.6706 Y-0.3441
N4660 X1.666 Y-0.374
N4665 X1.6602 Y-0.4039
N4670 X1.6537 Y-0.4338
N4675 X1.6452 Y-0.4637
N4680 X1.6347 Y-0.4936
N4685 X1.6338 Y-0.4959
N4690 X1.6223 Y-0.5236
N4695 X1.6038 Y-0.5603
N4700 X1.5909 Y-0.5834
N4705 X1.5734 Y-0.6133
N4710 X1.5535 Y-0.6432
N4715 X1.5438 Y-0.6574
N4720 X1.5313 Y-0.6732
N4725 X1.5138 Y-0.6936
N4730 X1.505 Y-0.7031
N4735 X1.4839 Y-0.7241
N4740 X1.4745 Y-0.733
N4745 X1.4539 Y-0.7507
N4750 X1.4393 Y-0.7629
N4755 X1.4015 Y-0.7928
N4760 X1.3939 Y-0.7985
N4765 X1.364 Y-0.818
N4770 X1.3561 Y-0.8227
N4775 X1.334 Y-0.8343
N4780 X1.304 Y-0.8494
N4785 X1.2965 Y-0.8527
N4790 X1.274 Y-0.8615
N4795 X1.2441 Y-0.8724
N4800 X1.2141 Y-0.8827
N4805 X1.1841 Y-0.8913
N4810 X1.1541 Y-0.8986
N4815 X1.1241 Y-0.9032
N4820 X1.0942 Y-0.9069
N4825 X1.0642 Y-0.9085
N4830 X1.0342 Y-0.9087
N4835 X1.0042 Y-0.9084
N4840 X0.9743 Y-0.9071
N4845 X0.9443 Y-0.904
N4850 X0.9143 Y-0.8998
N4855 X0.8843 Y-0.8928
N4860 X0.8543 Y-0.8845
N4865 X0.8244 Y-0.8745
N4870 X0.7944 Y-0.8637
N4875 X0.7661 Y-0.8527
N4880 X0.7344 Y-0.8374
N4885 X0.7068 Y-0.8227
N4890 X0.6905 Y-0.8141
N4895 X0.6852 Y-0.8113
N4900 X0.6799 Y-0.8084
N4905 X0.6745 Y-0.8057
N4910 X0.6692 Y-0.8029
N4915 X0.6637 Y-0.8002
N4920 X0.658 Y-0.7974
N4925 X0.6523 Y-0.7946
N4930 X0.6464 Y-0.7918
N4935 X0.6404 Y-0.789
N4940 X0.6342 Y-0.7861
N4945 X0.6279 Y-0.7833
N4950 X0.6214 Y-0.7804
N4955 X0.6148 Y-0.7775
N4960 X0.608 Y-0.7746
N4965 X0.6011 Y-0.7717
N4970 X0.594 Y-0.7688
N4975 X0.5867 Y-0.7659
N4980 X0.5793 Y-0.7629
N4985 X0.5716 Y-0.76
N4990 X0.5638 Y-0.757
N4995 X0.5557 Y-0.754
N5000 X0.5475 Y-0.7511
N5005 X0.539 Y-0.748
N5010 X0.5303 Y-0.745
N5015 X0.5214 Y-0.742
N5020 X0.5123 Y-0.739
N5025 X0.5029 Y-0.7359
N5030 X0.4932 Y-0.7329
N5035 X0.4832 Y-0.7298
N5040 X0.473 Y-0.7267
N5045 X0.4625 Y-0.7236
N5050 X0.4516 Y-0.7205
N5055 X0.4404 Y-0.7174
N5060 X0.4289 Y-0.7143
N5065 X0.417 Y-0.7111
N5070 X0.4048 Y-0.708
N5075 X0.3921 Y-0.7048
N5080 X0.379 Y-0.7016
N5085 X0.3654 Y-0.6985
N5090 X0.3514 Y-0.6953
N5095 X0.3369 Y-0.6921
N5100 X0.3218 Y-0.6889
N5105 X0.3062 Y-0.6857
N5110 X0.2899 Y-0.6825
N5115 X0.273 Y-0.6792
N5120 X0.2554 Y-0.676
N5125 X0.237 Y-0.6727
N5130 X0.2178 Y-0.6695
N5135 X0.1978 Y-0.6662
N5140 X0.1767 Y-0.6629
N5145 X0.1546 Y-0.6597
N5150 X0.1313 Y-0.6564
N5155 X0.1068 Y-0.6531
N5160 X0.0808 Y-0.6498
N5165 X0.0533 Y-0.6465
N5170 X0.0239 Y-0.6432
N5175 X-0.0074 Y-0.6398
N5180 X-0.0409 Y-0.6365
N5185 X-0.0771 Y-0.6332
N5190 X-0.1164 Y-0.6299
N5195 X-0.1592 Y-0.6265
N5200 X-0.2063 Y-0.6232
N5205 X-0.2585 Y-0.6198
N5210 X-0.3172 Y-0.6164
N5215 X-0.384 Y-0.6131
N5220 X-0.4581 Y-0.6099
N5225 X-0.5321 Y-0.6072
N5230 X-0.6062 Y-0.6049
N5235 X-0.6799 Y-0.5978
N5240 X-0.7519 Y-0.5803
N5245 X-0.8165 Y-0.544
N5250 X-0.8732 Y-0.4963
N5255 X-0.9225 Y-0.441
N5260 X-0.9301 Y-0.4241
N5265 X-0.9363 Y-0.4066
N5270 X-0.9409 Y-0.3887
N5275 X-0.944 Y-0.3705
N5280 X-0.9456 Y-0.352
N5285 Y-0.3335
N5290 X-0.944 Y-0.315
N5295 X-0.9409 Y-0.2968
N5300 X-0.9363 Y-0.2788
N5305 X-0.9302 Y-0.2613
N5310 X-0.8999 Y-0.1937
N5315 X-0.8508 Y-0.1382
N5320 X-0.795 Y-0.0895
N5325 X-0.7343 Y-0.047
N5330 X-0.6701 Y-0.01
N5335 X-0.6033 Y0.022
N5340 X-0.5345 Y0.0496
N5345 X-0.4644 Y0.0735
N5350 X-0.3932 Y0.094
N5355 X-0.3212 Y0.1117
N5360 X-0.2487 Y0.1269
N5365 X-0.1758 Y0.1399
N5370 X-0.1025 Y0.1511
N5375 X-0.029 Y0.1607
N5380 X0.0446 Y0.1689
N5385 X0.1184 Y0.1759
N5390 X0.1922 Y0.1819
N5395 X0.2661 Y0.187
N5400 X0.3401 Y0.1914
N5405 X0.4069 Y0.1948
N5410 X0.4265 Y0.1973
N5415 X0.4456 Y0.2028
N5420 X0.4636 Y0.2111
N5425 X0.4801 Y0.2221
N5430 X0.4948 Y0.2354
N5435 X0.5073 Y0.2509
N5440 X0.5246 Y0.276
N5445 X0.5317 Y0.2842
N5450 X0.5581 Y0.3141
N5455 X0.5846 Y0.34
N5460 X0.6145 Y0.3663
N5465 X0.6234 Y0.374
N5470 X0.6745 Y0.4135
N5475 X0.7045 Y0.432
N5480 X0.7074 Y0.4338
N5485 X0.7344 Y0.4482
N5490 X0.7667 Y0.4637
N5495 X0.7944 Y0.4744
N5500 X0.8244 Y0.4853
N5505 X0.8543 Y0.4953
N5510 X0.8843 Y0.5036
N5515 X0.9143 Y0.5106
N5520 X0.9443 Y0.5153
N5525 X0.9743 Y0.5178
N5530 X1.0042 Y0.5192
N5535 X1.0342 Y0.5194
N5540 X1.0642 Y0.5192
N5545 X1.0942 Y0.5173
N5550 X1.1241 Y0.5143
N5555 X1.1541 Y0.5094
N5560 X1.1841 Y0.502
N5565 X1.2137 Y0.4936
N5570 X1.2441 Y0.4832
N5575 X1.274 Y0.4722
N5580 G3 X1.3128 Y0.4676 I0.0311 J0.0953
N5585 G1 X1.3207 Y0.4682 Z-0.1797
N5590 X1.3285 Y0.4688 Z-0.1788
N5595 X1.3362 Y0.4694 Z-0.1772
N5600 X1.3437 Y0.47 Z-0.1751
N5605 X1.3511 Y0.4706 Z-0.1724
N5610 X1.3582 Y0.4711 Z-0.1691
N5615 X1.365 Y0.4717 Z-0.1652
N5620 X1.3716 Y0.4722 Z-0.1609
N5625 X1.3777 Y0.4726 Z-0.156
N5630 X1.3835 Y0.4731 Z-0.1507
N5635 X1.3888 Y0.4735 Z-0.1449
N5640 X1.3937 Y0.4739 Z-0.1387
N5645 X1.398 Y0.4742 Z-0.1322
N5650 X1.4019 Y0.4745 Z-0.1253
N5655 X1.4051 Y0.4748 Z-0.1181
N5660 X1.4079 Y0.475 Z-0.1108
N5665 X1.41 Y0.4751 Z-0.1032
N5670 X1.4115 Y0.4753 Z-0.0955
N5675 X1.4124 Z-0.0877
N5680 X1.4127 Y0.4754 Z-0.0798
N5685 G0 Z0.2
N5690 G1 X0.7816 Y-0.9395 F500.
N5695 G0 Z0.0204
N5700 G1 Z-0.0798 F77.
N5705 X0.7814 Y-0.9393 Z-0.0877
N5710 X0.781 Y-0.9385 Z-0.0955
N5715 X0.7802 Y-0.9371 Z-0.1032
N5720 X0.7792 Y-0.9352 Z-0.1108
N5725 X0.7779 Y-0.9328 Z-0.1181
N5730 X0.7763 Y-0.93 Z-0.1253
N5735 X0.7745 Y-0.9266 Z-0.1322
N5740 X0.7724 Y-0.9227 Z-0.1387
N5745 X0.7701 Y-0.9185 Z-0.1449
N5750 X0.7675 Y-0.9138 Z-0.1507
N5755 X0.7648 Y-0.9087 Z-0.156
N5760 X0.7618 Y-0.9033 Z-0.1609
N5765 X0.7587 Y-0.8975 Z-0.1652
N5770 X0.7554 Y-0.8915 Z-0.1691
N5775 X0.752 Y-0.8852 Z-0.1724
N5780 X0.7485 Y-0.8787 Z-0.1751
N5785 X0.7448 Y-0.8721 Z-0.1772
N5790 X0.7411 Y-0.8653 Z-0.1788
N5795 X0.7374 Y-0.8585 Z-0.1797
N5800 X0.7336 Y-0.8515 Z-0.18
N5805 G3 X0.7068 Y-0.8227 I-0.0696 J-0.0379
N5810 G1 X0.7045 Y-0.8213
N5815 X0.6745 Y-0.8027
N5820 X0.6231 Y-0.7629
N5825 X0.5846 Y-0.7292
N5830 X0.5581 Y-0.7031
N5835 X0.5315 Y-0.6732
N5840 X0.5246 Y-0.665
N5845 X0.4946 Y-0.6219
N5850 X0.489 Y-0.6133
N5855 X0.4716 Y-0.5834
N5860 X0.4646 Y-0.5714
N5865 X0.4553 Y-0.5535
N5870 X0.4402 Y-0.5236
N5875 X0.4347 Y-0.5117
N5880 X0.4274 Y-0.4936
N5885 X0.4173 Y-0.4637
N5890 X0.4088 Y-0.4338
N5895 X0.4047 Y-0.4166
N5900 X0.3965 Y-0.374
N5905 X0.3919 Y-0.3441
N5910 X0.3881 Y-0.3141
N5915 X0.386 Y-0.2842
N5920 X0.3853 Y-0.2543
N5925 Y-0.2244
N5930 Y-0.1645
N5935 Y-0.1346
N5940 X0.3861 Y-0.1047
N5945 X0.388 Y-0.0748
N5950 X0.3919 Y-0.0449
N5955 X0.3966 Y-0.015
N5960 X0.4047 Y0.0277
N5965 X0.409 Y0.0449
N5970 X0.4173 Y0.0748
N5975 X0.4179 Y0.0793 Z-0.1797
N5980 X0.4186 Y0.0838 Z-0.1789
N5985 X0.4192 Y0.0882 Z-0.1776
N5990 X0.4199 Y0.0923 Z-0.1758
N5995 Y0.0953 Z-0.1741
N6000 X0.42 Y0.0982 Z-0.1721
N6005 X0.4198 Y0.1016 Z-0.1692
N6010 X0.4195 Y0.1048 Z-0.1659
N6015 X0.4193 Y0.1075 Z-0.1622
N6020 X0.4191 Y0.1097 Z-0.1583
N6025 X0.419 Y0.1115 Z-0.1541
N6030 X0.4189 Y0.1128 Z-0.1497
N6035 X0.4188 Y0.1136 Z-0.1452
N6040 Y0.1139 Z-0.1407
N6045 G0 Z0.2
N6050 G1 X0.0905 Y1.2881 F500.
N6055 G0 Z-0.0356
N6060 G1 Z-0.1358 F77.
N6065 X0.0908 Y1.288 Z-0.1437
N6070 X0.0916 Y1.2875 Z-0.1515
N6075 X0.0929 Y1.2867 Z-0.1592
N6080 X0.0947 Y1.2856 Z-0.1668
N6085 X0.097 Y1.2841 Z-0.1741
N6090 X0.0999 Y1.2824 Z-0.1813
N6095 X0.1031 Y1.2804 Z-0.1882
N6100 X0.1069 Y1.2781 Z-0.1947
N6105 X0.111 Y1.2756 Z-0.2009
N6110 X0.1156 Y1.2728 Z-0.2067
N6115 X0.1205 Y1.2698 Z-0.212
N6120 X0.1258 Y1.2666 Z-0.2169
N6125 X0.1314 Y1.2632 Z-0.2212
N6130 X0.1372 Y1.2596 Z-0.2251
N6135 X0.1433 Y1.2559 Z-0.2284
N6140 X0.1496 Y1.252 Z-0.2311
N6145 X0.1561 Y1.2481 Z-0.2332
N6150 X0.1627 Y1.244 Z-0.2348
N6155 X0.1693 Y1.24 Z-0.2357
N6160 X0.176 Y1.2359 Z-0.236
N6165 G3 X0.6745 Y1.0008 I1.334 J2.1827
N6170 G1 X0.7045 Y0.9916
N6175 X0.7344 Y0.98
N6180 X0.7531 Y0.9723
N6185 X0.7644 Y0.9665
N6190 X0.7944 Y0.9504
N6195 X0.8244 Y0.9314
N6200 X0.8501 Y0.9125
N6205 X0.8843 Y0.8847
N6210 X0.8991 Y0.8736
N6215 X0.9387 Y0.8472
N6220 X0.9893 Y0.8188
N6225 X1.0542 Y0.7886
N6230 X1.1236 Y0.7625
N6235 X1.1906 Y0.7308
N6240 X1.2495 Y0.6859
N6245 X1.3014 Y0.6331
N6250 X1.3469 Y0.5745
N6255 X1.3864 Y0.5119
N6260 X1.4208 Y0.4462
N6265 X1.4486 Y0.3825
N6270 X1.4566 Y0.3671
N6275 X1.4665 Y0.353
N6280 X1.4783 Y0.3402
N6285 X1.4839 Y0.3349
N6290 X1.5048 Y0.3141
N6295 X1.5138 Y0.3044
N6300 X1.5311 Y0.2842
N6305 X1.5438 Y0.2682
N6310 X1.5532 Y0.2543
N6315 X1.5733 Y0.2244
N6320 X1.5907 Y0.1945
N6325 X1.6038 Y0.1712
N6330 X1.6221 Y0.1346
N6335 X1.6338 Y0.1069
N6340 X1.6346 Y0.1047
N6345 X1.6452 Y0.0748
N6350 X1.6535 Y0.0449
N6355 X1.6602 Y0.015
N6360 X1.6659 Y-0.015
N6365 X1.6706 Y-0.0449
N6370 X1.6745 Y-0.0748
N6375 X1.6764 Y-0.1047
N6380 X1.6772 Y-0.1346
N6385 Y-0.1645
N6390 Y-0.2244
N6395 Y-0.2543
N6400 X1.6765 Y-0.2842
N6405 X1.6744 Y-0.3141
N6410 X1.6706 Y-0.3441
N6415 X1.666 Y-0.374
N6420 X1.6602 Y-0.4039
N6425 X1.6537 Y-0.4338
N6430 X1.6452 Y-0.4637
N6435 X1.6347 Y-0.4936
N6440 X1.6338 Y-0.4959
N6445 X1.6223 Y-0.5236
N6450 X1.6038 Y-0.5603
N6455 X1.5909 Y-0.5834
N6460 X1.5734 Y-0.6133
N6465 X1.5535 Y-0.6432
N6470 X1.5438 Y-0.6574
N6475 X1.5313 Y-0.6732
N6480 X1.5138 Y-0.6936
N6485 X1.505 Y-0.7031
N6490 X1.4839 Y-0.7241
N6495 X1.4745 Y-0.733
N6500 X1.4539 Y-0.7507
N6505 X1.4393 Y-0.7629
N6510 X1.4015 Y-0.7928
N6515 X1.3939 Y-0.7985
N6520 X1.364 Y-0.818
N6525 X1.3561 Y-0.8227
N6530 X1.334 Y-0.8343
N6535 X1.304 Y-0.8494
N6540 X1.2965 Y-0.8527
N6545 X1.274 Y-0.8615
N6550 X1.2441 Y-0.8724
N6555 X1.2141 Y-0.8827
N6560 X1.1841 Y-0.8913
N6565 X1.1541 Y-0.8986
N6570 X1.1241 Y-0.9032
N6575 X1.0942 Y-0.9069
N6580 X1.0642 Y-0.9085
N6585 X1.0342 Y-0.9087
N6590 X1.0042 Y-0.9084
N6595 X0.9743 Y-0.9071
N6600 X0.9443 Y-0.9045
N6605 X0.9143 Y-0.9001
N6610 X0.8993 Y-0.8995
N6615 X0.8843 Y-0.9011
N6620 X0.8693 Y-0.9051
N6625 X0.8543 Y-0.9117
N6630 X0.8529 Y-0.9125
N6635 X0.8482 Y-0.9156
N6640 X0.8447 Y-0.9186 Z-0.2357
N6645 X0.8413 Y-0.9216 Z-0.2349
N6650 X0.8379 Y-0.9244 Z-0.2336
N6655 X0.8347 Y-0.9271 Z-0.2318
N6660 X0.8323 Y-0.93 Z-0.2296
N6665 X0.8301 Y-0.9327 Z-0.2271
N6670 X0.8281 Y-0.9352 Z-0.2242
N6675 X0.8263 Y-0.9374 Z-0.2209
N6680 X0.8248 Y-0.9393 Z-0.2174
N6685 X0.8235 Y-0.9409 Z-0.2136
N6690 X0.8226 Y-0.9422 Z-0.2096
N6695 X0.8219 Y-0.9433 Z-0.2054
N6700 X0.8215 Y-0.9439 Z-0.201
N6705 X0.8214 Y-0.9441 Z-0.1967
N6710 G0 Z0.2
N6715 G1 X0.2883 Y-1.1164 F500.
N6720 G0 Z-0.0176
N6725 G1 Z-0.1178 F77.
N6730 X0.2886 Z-0.1257
N6735 X0.2896 Y-1.1163 Z-0.1335
N6740 X0.2911 Y-1.1162 Z-0.1412
N6745 X0.2932 Y-1.116 Z-0.1488
N6750 X0.2959 Y-1.1159 Z-0.1561
N6755 X0.2992 Y-1.1156 Z-0.1633
N6760 X0.3031 Y-1.1153 Z-0.1702
N6765 X0.3074 Y-1.115 Z-0.1767
N6770 X0.3123 Y-1.1147 Z-0.1829
N6775 X0.3176 Y-1.1143 Z-0.1887
N6780 X0.3234 Y-1.1139 Z-0.194
N6785 X0.3295 Y-1.1135 Z-0.1989
N6790 X0.3361 Y-1.113 Z-0.2032
N6795 X0.3429 Y-1.1125 Z-0.2071
N6800 X0.35 Y-1.112 Z-0.2104
N6805 X0.3574 Y-1.1115 Z-0.2131
N6810 X0.365 Y-1.111 Z-0.2152
N6815 X0.3727 Y-1.1104 Z-0.2168
N6820 X0.3804 Y-1.1099 Z-0.2177
N6825 X0.3883 Y-1.1093 Z-0.218
N6830 G3 X0.8979 Y-0.8997 I-0.0617 J0.8742
N6835 G1 X0.8843 Y-0.9011
N6840 X0.8693 Y-0.905
N6845 X0.8543 Y-0.9117
N6850 X0.8529 Y-0.9125
N6855 X0.8481 Y-0.9156
N6860 X0.8447 Y-0.9186 Z-0.2177
N6865 X0.8412 Y-0.9215 Z-0.2169
N6870 X0.8379 Y-0.9244 Z-0.2156
N6875 X0.8347 Y-0.9271 Z-0.2138
N6880 X0.8323 Y-0.93 Z-0.2116
N6885 X0.8301 Y-0.9327 Z-0.2091
N6890 X0.8281 Y-0.9352 Z-0.2062
N6895 X0.8263 Y-0.9374 Z-0.2029
N6900 X0.8247 Y-0.9393 Z-0.1994
N6905 X0.8234 Y-0.9409 Z-0.1956
N6910 X0.8225 Y-0.9423 Z-0.1916
N6915 X0.8219 Y-0.9433 Z-0.1874
N6920 X0.8215 Y-0.9439 Z-0.183
N6925 X0.8213 Y-0.9441 Z-0.1787
N6930 G0 Z0.2
N6935 G1 X1.5539 Y-1.0987 F500.
N6940 G0 Z-0.0116
N6945 G1 Z-0.1118 F77.
N6950 X1.5537 Y-1.0986 Z-0.1197
N6955 X1.5528 Y-1.0982 Z-0.1275
N6960 X1.5514 Y-1.0976 Z-0.1352
N6965 X1.5494 Y-1.0968 Z-0.1428
N6970 X1.5469 Y-1.0957 Z-0.1501
N6975 X1.5439 Y-1.0945 Z-0.1573
N6980 X1.5403 Y-1.093 Z-0.1642
N6985 X1.5363 Y-1.0913 Z-0.1707
N6990 X1.5318 Y-1.0894 Z-0.1769
N6995 X1.5269 Y-1.0873 Z-0.1827
N7000 X1.5216 Y-1.0851 Z-0.188
N7005 X1.5159 Y-1.0827 Z-0.1929
N7010 X1.5098 Y-1.0802 Z-0.1972
N7015 X1.5035 Y-1.0775 Z-0.2011
N7020 X1.4969 Y-1.0748 Z-0.2044
N7025 X1.4901 Y-1.0719 Z-0.2071
N7030 X1.4831 Y-1.069 Z-0.2092
N7035 X1.476 Y-1.066 Z-0.2108
N7040 X1.4688 Y-1.063 Z-0.2117
N7045 X1.4615 Y-1.0599 Z-0.212
N7050 G3 X0.9333 Y-0.9029 I-0.989 J-2.3592
N7055 G1 X0.9143 Y-0.9001
N7060 X0.8993 Y-0.8992
N7065 X0.8843 Y-0.9007
N7070 X0.8693 Y-0.9045
N7075 X0.8543 Y-0.9109
N7080 X0.8515 Y-0.9125
N7085 X0.847 Y-0.9155
N7090 X0.8435 Y-0.9185 Z-0.2117
N7095 X0.84 Y-0.9214 Z-0.2109
N7100 X0.8367 Y-0.9243 Z-0.2096
N7105 X0.8335 Y-0.927 Z-0.2078
N7110 X0.8311 Y-0.9299 Z-0.2056
N7115 X0.8289 Y-0.9326 Z-0.2031
N7120 X0.8269 Y-0.935 Z-0.2002
N7125 X0.8251 Y-0.9372 Z-0.1969
N7130 X0.8236 Y-0.9391 Z-0.1934
N7135 X0.8223 Y-0.9407 Z-0.1896
N7140 X0.8214 Y-0.9421 Z-0.1856
N7145 X0.8207 Y-0.9431 Z-0.1814
N7150 X0.8203 Y-0.9437 Z-0.177
N7155 X0.8202 Y-0.9439 Z-0.1727
N7160 G0 Z0.2
N7165 G1 X1.5533 Y-1.1005 F500.
N7170 G0 Z-0.0056
N7175 G1 Z-0.1058 F77.
N7180 X1.5531 Y-1.1004 Z-0.1137
N7185 X1.5522 Y-1.1001 Z-0.1215
N7190 X1.5508 Y-1.0995 Z-0.1292
N7195 X1.5488 Y-1.0986 Z-0.1368
N7200 X1.5463 Y-1.0976 Z-0.1441
N7205 X1.5433 Y-1.0963 Z-0.1513
N7210 X1.5397 Y-1.0948 Z-0.1582
N7215 X1.5357 Y-1.0931 Z-0.1647
N7220 X1.5312 Y-1.0912 Z-0.1709
N7225 X1.5263 Y-1.0891 Z-0.1767
N7230 X1.521 Y-1.0869 Z-0.182
N7235 X1.5153 Y-1.0845 Z-0.1869
N7240 X1.5093 Y-1.0819 Z-0.1912
N7245 X1.503 Y-1.0792 Z-0.1951
N7250 X1.4964 Y-1.0765 Z-0.1984
N7255 X1.4896 Y-1.0736 Z-0.2011
N7260 X1.4826 Y-1.0706 Z-0.2032
N7265 X1.4755 Y-1.0676 Z-0.2048
N7270 X1.4683 Y-1.0646 Z-0.2057
N7275 X1.4611 Y-1.0615 Z-0.206
N7280 G3 X0.9333 Y-0.9028 I-0.9963 J-2.3561
N7285 G1 X0.9143 Y-0.9
N7290 X0.8993 Y-0.8988
N7295 X0.8843 Y-0.8997
N7300 X0.8693 Y-0.9031
N7305 X0.8543 Y-0.9089
N7310 X0.8477 Y-0.9125
N7315 X0.8438 Y-0.9151
N7320 X0.8404 Y-0.9181 Z-0.2057
N7325 X0.8369 Y-0.921 Z-0.2049
N7330 X0.8336 Y-0.9239 Z-0.2036
N7335 X0.8304 Y-0.9267 Z-0.2018
N7340 X0.8281 Y-0.9296 Z-0.1996
N7345 X0.8259 Y-0.9323 Z-0.1971
N7350 X0.8239 Y-0.9347 Z-0.1942
N7355 X0.8221 Y-0.9369 Z-0.1909
N7360 X0.8205 Y-0.9388 Z-0.1874
N7365 X0.8192 Y-0.9404 Z-0.1836
N7370 X0.8183 Y-0.9418 Z-0.1796
N7375 X0.8177 Y-0.9429 Z-0.1754
N7380 X0.8173 Y-0.9435 Z-0.171
N7385 X0.8172 Y-0.9437 Z-0.1667
N7390 G0 Z0.2
N7395 G1 X1.565 Y-1.0945 F500.
N7400 G0 Z0.0004
N7405 G1 Z-0.0998 F77.
N7410 X1.5647 Y-1.0944 Z-0.1077
N7415 X1.5639 Y-1.0941 Z-0.1155
N7420 X1.5624 Y-1.0935 Z-0.1232
N7425 X1.5605 Y-1.0927 Z-0.1308
N7430 X1.5579 Y-1.0916 Z-0.1381
N7435 X1.5549 Y-1.0904 Z-0.1453
N7440 X1.5513 Y-1.0889 Z-0.1522
N7445 X1.5473 Y-1.0873 Z-0.1587
N7450 X1.5428 Y-1.0854 Z-0.1649
N7455 X1.5378 Y-1.0834 Z-0.1707
N7460 X1.5325 Y-1.0812 Z-0.176
N7465 X1.5268 Y-1.0789 Z-0.1809
N7470 X1.5207 Y-1.0764 Z-0.1852
N7475 X1.5144 Y-1.0738 Z-0.1891
N7480 X1.5078 Y-1.0711 Z-0.1924
N7485 X1.5009 Y-1.0683 Z-0.1951
N7490 X1.4939 Y-1.0654 Z-0.1972
N7495 X1.4868 Y-1.0625 Z-0.1988
N7500 X1.4796 Y-1.0595 Z-0.1997
N7505 X1.4723 Y-1.0565 Z-0.2
N7510 G3 X0.9428 Y-0.9038 I-0.9697 J-2.3672
N7515 G1 X0.9143 Y-0.8998
N7520 X0.8993 Y-0.898
N7525 X0.8843 Y-0.8982
N7530 X0.8693 Y-0.9008
N7535 X0.8543 Y-0.9057
N7540 X0.8412 Y-0.9125
N7545 X0.8396 Y-0.9136
N7550 X0.8362 Y-0.9166 Z-0.1997
N7555 X0.8328 Y-0.9196 Z-0.1989
N7560 X0.8295 Y-0.9225 Z-0.1976
N7565 X0.8263 Y-0.9253 Z-0.1958
N7570 X0.824 Y-0.9282 Z-0.1936
N7575 X0.8219 Y-0.9309 Z-0.1911
N7580 X0.8199 Y-0.9334 Z-0.1882
N7585 X0.8181 Y-0.9356 Z-0.1849
N7590 X0.8166 Y-0.9375 Z-0.1814
N7595 X0.8153 Y-0.9392 Z-0.1776
N7600 X0.8144 Y-0.9406 Z-0.1736
N7605 X0.8138 Y-0.9416 Z-0.1694
N7610 X0.8134 Y-0.9422 Z-0.165
N7615 X0.8133 Y-0.9424 Z-0.1607
N7620 G0 Z0.2
N7625 G1 X1.5253 Y-1.079 F500.
N7630 G0 Z0.0064
N7635 G1 Z-0.0938 F77.
N7640 X1.525 Y-1.0789 Z-0.1017
N7645 X1.5242 Y-1.0786 Z-0.1095
N7650 X1.5227 Y-1.078 Z-0.1172
N7655 X1.5207 Y-1.0772 Z-0.1248
N7660 X1.5182 Y-1.0762 Z-0.1321
N7665 X1.5151 Y-1.075 Z-0.1393
N7670 X1.5116 Y-1.0736 Z-0.1462
N7675 X1.5075 Y-1.072 Z-0.1527
N7680 X1.503 Y-1.0703 Z-0.1589
N7685 X1.498 Y-1.0683 Z-0.1647
N7690 X1.4926 Y-1.0662 Z-0.17
N7695 X1.4869 Y-1.064 Z-0.1749
N7700 X1.4808 Y-1.0616 Z-0.1792
N7705 X1.4744 Y-1.0591 Z-0.1831
N7710 X1.4677 Y-1.0565 Z-0.1864
N7715 X1.4608 Y-1.0538 Z-0.1891
N7720 X1.4538 Y-1.051 Z-0.1912
N7725 X1.4466 Y-1.0482 Z-0.1928
N7730 X1.4393 Y-1.0454 Z-0.1937
N7735 X1.432 Y-1.0425 Z-0.194
N7740 G3 X0.9002 Y-0.8981 I-0.9323 J-2.3822
N7745 G1 X0.8843 Y-0.8961
N7750 X0.8693 Y-0.8974
N7755 X0.8543 Y-0.901
N7760 X0.8423 Y-0.9058
N7765 X0.8302 Y-0.9125
N7770 X0.8293 Y-0.9132
N7775 X0.8258 Y-0.9162 Z-0.1937
N7780 X0.8224 Y-0.9192 Z-0.1929
N7785 X0.8191 Y-0.9221 Z-0.1916
N7790 X0.816 Y-0.9249 Z-0.1898
N7795 X0.8137 Y-0.9278 Z-0.1876
N7800 X0.8115 Y-0.9305 Z-0.1851
N7805 X0.8095 Y-0.933 Z-0.1822
N7810 X0.8078 Y-0.9352 Z-0.1789
N7815 X0.8063 Y-0.9372 Z-0.1754
N7820 X0.805 Y-0.9388 Z-0.1716
N7825 X0.8041 Y-0.9402 Z-0.1676
N7830 X0.8034 Y-0.9412 Z-0.1634
N7835 X0.803 Y-0.9418 Z-0.159
N7840 X0.8029 Y-0.9421 Z-0.1547
N7845 G0 Z0.2
N7850 G1 X0.8292 Y1.0119 F500.
N7855 G0 Z-0.0356
N7860 G1 Z-0.1358 F77.
N7865 X0.8293 Y1.0116 Z-0.1437
N7870 X0.8296 Y1.0108 Z-0.1515
N7875 X0.8301 Y1.0093 Z-0.1592
N7880 X0.8308 Y1.0073 Z-0.1668
N7885 X0.8317 Y1.0047 Z-0.1741
N7890 X0.8328 Y1.0016 Z-0.1813
N7895 X0.8341 Y0.998 Z-0.1882
N7900 X0.8355 Y0.9939 Z-0.1947
N7905 X0.8371 Y0.9893 Z-0.2009
N7910 X0.8389 Y0.9842 Z-0.2067
N7915 X0.8408 Y0.9788 Z-0.212
N7920 X0.8429 Y0.973 Z-0.2169
N7925 X0.8451 Y0.9668 Z-0.2212
N7930 X0.8473 Y0.9603 Z-0.2251
N7935 X0.8497 Y0.9536 Z-0.2284
N7940 X0.8522 Y0.9466 Z-0.2311
N7945 X0.8547 Y0.9395 Z-0.2332
N7950 X0.8572 Y0.9322 Z-0.2348
N7955 X0.8598 Y0.9248 Z-0.2357
N7960 X0.8625 Y0.9174 Z-0.236
N7965 G3 X0.8843 Y0.8847 I0.0748 J0.0263
N7970 G1 X0.8869 Y0.8826
N7975 X0.9155 Y0.8527
N7980 X0.9414 Y0.8227
N7985 X0.9634 Y0.7928
N7990 X0.9743 Y0.7773
N7995 X0.9827 Y0.7629
N8000 X0.9989 Y0.733
N8005 X1.0124 Y0.7031
N8010 X1.0246 Y0.6732
N8015 X1.0341 Y0.6432
N8020 X1.0411 Y0.6133
N8025 X1.0484 Y0.5834
N8030 X1.0545 Y0.5684
N8035 X1.0586 Y0.561
N8040 X1.0637 Y0.5535
N8045 X1.0642 Y0.5528
N8050 X1.0709 Y0.5449
N8055 X1.0792 Y0.5369
N8060 X1.0867 Y0.531
N8065 X1.0942 Y0.5262
N8070 X1.0991 Y0.5236
N8075 X1.1116 Y0.5182
N8080 X1.1241 Y0.5148
N8085 X1.1541 Y0.5095
N8090 X1.1841 Y0.502
N8095 X1.2137 Y0.4936
N8100 X1.2441 Y0.4832
N8105 X1.274 Y0.4722
N8110 X1.296 Y0.4637
N8115 X1.3004 Y0.4626 Z-0.2357
N8120 X1.3048 Y0.4615 Z-0.2349
N8125 X1.3091 Y0.4604 Z-0.2336
N8130 X1.3132 Y0.4594 Z-0.2318
N8135 X1.3169 Y0.4591 Z-0.2296
N8140 X1.3204 Y0.4588 Z-0.227
N8145 X1.3236 Y0.4586 Z-0.2241
N8150 X1.3264 Y0.4584 Z-0.2208
N8155 X1.3289 Y0.4582 Z-0.2172
N8160 X1.331 Z-0.2134
N8165 X1.3326 Y0.4583 Z-0.2094
N8170 X1.3337 Z-0.2052
N8175 X1.3345 Z-0.201
N8180 X1.3347 Z-0.1967
N8185 G0 Z0.2
N8190 G1 X0.9935 Y1.2624 F500.
N8195 G0 Z-0.0176
N8200 G1 Z-0.1178 F77.
N8205 Y1.2621 Z-0.1257
N8210 Y1.2611 Z-0.1335
N8215 Y1.2596 Z-0.1412
N8220 X0.9934 Y1.2575 Z-0.1488
N8225 Y1.2548 Z-0.1561
N8230 X0.9933 Y1.2515 Z-0.1633
N8235 X0.9932 Y1.2476 Z-0.1702
N8240 Y1.2432 Z-0.1767
N8245 X0.9931 Y1.2384 Z-0.1829
N8250 X0.993 Y1.233 Z-0.1887
N8255 X0.9929 Y1.2273 Z-0.194
N8260 X0.9928 Y1.2211 Z-0.1989
N8265 X0.9926 Y1.2145 Z-0.2032
N8270 X0.9925 Y1.2077 Z-0.2071
N8275 X0.9924 Y1.2005 Z-0.2104
N8280 X0.9923 Y1.1932 Z-0.2131
N8285 X0.9921 Y1.1856 Z-0.2152
N8290 X0.992 Y1.1779 Z-0.2168
N8295 X0.9918 Y1.1701 Z-0.2177
N8300 X0.9917 Y1.1622 Z-0.218
N8305 G3 X1.0411 Y0.6133 I2.5577 J-0.0463
N8310 G1 X1.0484 Y0.5834
N8315 X1.0544 Y0.5684
N8320 X1.0586 Y0.561
N8325 X1.0637 Y0.5535
N8330 X1.0642 Y0.5528
N8335 X1.0709 Y0.5448
N8340 X1.0792 Y0.5369
N8345 X1.0867 Y0.531
N8350 X1.0942 Y0.5262
N8355 X1.0991 Y0.5236
N8360 X1.1116 Y0.5182
N8365 X1.1241 Y0.5148
N8370 X1.1332 Y0.5132
N8375 X1.1379 Y0.5129 Z-0.2177
N8380 X1.1425 Y0.5126 Z-0.2169
N8385 X1.147 Y0.5122 Z-0.2155
N8390 X1.1511 Y0.5126 Z-0.2136
N8395 X1.155 Y0.513 Z-0.2113
N8400 X1.1586 Y0.5133 Z-0.2086
N8405 X1.1618 Y0.5136 Z-0.2055
N8410 X1.1647 Y0.5138 Z-0.2021
N8415 X1.167 Y0.5143 Z-0.1986
N8420 X1.1688 Y0.5147 Z-0.1949
N8425 X1.1703 Y0.515 Z-0.191
N8430 X1.1714 Y0.5153 Z-0.1869
N8435 X1.172 Y0.5154 Z-0.1828
N8440 X1.1722 Y0.5155 Z-0.1787
N8445 G0 Z0.2
N8450 G1 X0.9864 Y1.2879 F500.
N8455 G0 Z-0.0116
N8460 G1 Z-0.1118 F77.
N8465 Y1.2876 Z-0.1197
N8470 Y1.2867 Z-0.1275
N8475 X0.9863 Y1.2852 Z-0.1352
N8480 Y1.283 Z-0.1428
N8485 Y1.2803 Z-0.1501
N8490 X0.9862 Y1.277 Z-0.1573
N8495 X0.9861 Y1.2732 Z-0.1642
N8500 Y1.2688 Z-0.1707
N8505 X0.986 Y1.2639 Z-0.1769
N8510 X0.9859 Y1.2586 Z-0.1827
N8515 X0.9858 Y1.2528 Z-0.188
N8520 X0.9857 Y1.2466 Z-0.1929
N8525 X0.9855 Y1.2401 Z-0.1972
N8530 X0.9854 Y1.2332 Z-0.2011
N8535 X0.9853 Y1.2261 Z-0.2044
N8540 X0.9852 Y1.2187 Z-0.2071
N8545 X0.985 Y1.2111 Z-0.2092
N8550 X0.9849 Y1.2034 Z-0.2108
N8555 X0.9848 Y1.1956 Z-0.2117
N8560 X0.9846 Y1.1878 Z-0.212
N8565 G3 X1.0342 Y0.6389 I2.5577 J-0.0455
N8570 G1 X1.0403 Y0.6133
N8575 X1.0476 Y0.5834
N8580 X1.0536 Y0.5684
N8585 X1.0578 Y0.561
N8590 X1.0629 Y0.5535
N8595 X1.0642 Y0.5518
N8600 X1.0709 Y0.544
N8605 X1.0792 Y0.5363
N8610 X1.0867 Y0.5306
N8615 X1.0942 Y0.5259
N8620 X1.0985 Y0.5236
N8625 X1.1113 Y0.5182
N8630 X1.1241 Y0.5148
N8635 X1.1332 Y0.5132
N8640 X1.1379 Y0.5129 Z-0.2117
N8645 X1.1425 Y0.5125 Z-0.2109
N8650 X1.1469 Y0.5122 Z-0.2095
N8655 X1.151 Y0.5126 Z-0.2077
N8660 X1.1549 Y0.5129 Z-0.2055
N8665 X1.1584 Y0.5133 Z-0.2028
N8670 X1.1617 Y0.5135 Z-0.1997
N8675 X1.1646 Y0.5138 Z-0.1962
N8680 X1.1669 Y0.5143 Z-0.1927
N8685 X1.1688 Y0.5147 Z-0.189
N8690 X1.1703 Y0.5151 Z-0.1851
N8695 X1.1714 Y0.5153 Z-0.181
N8700 X1.172 Y0.5154 Z-0.1769
N8705 X1.1722 Y0.5155 Z-0.1727
N8710 G0 Z0.2
N8715 G1 X0.9827 Y1.2922 F500.
N8720 G0 Z-0.0056
N8725 G1 Z-0.1058 F77.
N8730 Y1.2919 Z-0.1137
N8735 Y1.291 Z-0.1215
N8740 X0.9826 Y1.2895 Z-0.1292
N8745 Y1.2873 Z-0.1368
N8750 X0.9825 Y1.2846 Z-0.1441
N8755 Y1.2813 Z-0.1513
N8760 X0.9824 Y1.2775 Z-0.1582
N8765 X0.9823 Y1.2731 Z-0.1647
N8770 Y1.2682 Z-0.1709
N8775 X0.9822 Y1.2629 Z-0.1767
N8780 X0.9821 Y1.2571 Z-0.182
N8785 X0.982 Y1.2509 Z-0.1869
N8790 X0.9819 Y1.2444 Z-0.1912
N8795 X0.9817 Y1.2375 Z-0.1951
N8800 X0.9816 Y1.2304 Z-0.1984
N8805 X0.9815 Y1.223 Z-0.2011
N8810 X0.9814 Y1.2154 Z-0.2032
N8815 X0.9812 Y1.2077 Z-0.2048
N8820 X0.9811 Y1.1999 Z-0.2057
N8825 X0.981 Y1.1921 Z-0.206
N8830 G3 X1.031 Y0.6432 I2.5577 J-0.0435
N8835 G1 X1.0381 Y0.6133
N8840 X1.0455 Y0.5834
N8845 X1.0516 Y0.5684
N8850 X1.0558 Y0.561
N8855 X1.0609 Y0.5535
N8860 X1.0642 Y0.5494
N8865 X1.0717 Y0.5414
N8870 X1.0792 Y0.5348
N8875 X1.0867 Y0.5294
N8880 X1.0942 Y0.525
N8885 X1.0969 Y0.5236
N8890 X1.1105 Y0.518
N8895 X1.1241 Y0.5147
N8900 X1.1332 Y0.5131
N8905 X1.1378 Y0.5128 Z-0.2057
N8910 X1.1423 Y0.5125 Z-0.2049
N8915 X1.1466 Y0.5122 Z-0.2036
N8920 X1.1507 Y0.5126 Z-0.2019
N8925 X1.1546 Y0.5129 Z-0.1997
N8930 X1.1581 Y0.5132 Z-0.197
N8935 X1.1614 Y0.5135 Z-0.194
N8940 X1.1643 Y0.5138 Z-0.1906
N8945 X1.1667 Y0.5143 Z-0.1871
N8950 X1.1686 Y0.5147 Z-0.1833
N8955 X1.1702 Y0.5151 Z-0.1793
N8960 X1.1713 Y0.5153 Z-0.1752
N8965 X1.172 Y0.5155 Z-0.1709
N8970 X1.1722 Z-0.1667
N8975 G0 Z0.2
N8980 G1 X0.9779 Y1.2922 F500.
N8985 G0 Z0.0004
N8990 G1 Z-0.0998 F77.
N8995 Y1.2919 Z-0.1077
N9000 Y1.2909 Z-0.1155
N9005 Y1.2894 Z-0.1232
N9010 X0.9778 Y1.2873 Z-0.1308
N9015 Y1.2846 Z-0.1381
N9020 Y1.2813 Z-0.1453
N9025 X0.9777 Y1.2774 Z-0.1522
N9030 X0.9776 Y1.273 Z-0.1587
N9035 Y1.2682 Z-0.1649
N9040 X0.9775 Y1.2628 Z-0.1707
N9045 X0.9774 Y1.2571 Z-0.176
N9050 X0.9773 Y1.2509 Z-0.1809
N9055 X0.9772 Y1.2443 Z-0.1852
N9060 X0.9771 Y1.2375 Z-0.1891
N9065 X0.977 Y1.2303 Z-0.1924
N9070 X0.9768 Y1.2229 Z-0.1951
N9075 X0.9767 Y1.2154 Z-0.1972
N9080 X0.9766 Y1.2077 Z-0.1988
N9085 X0.9765 Y1.1998 Z-0.1997
N9090 X0.9764 Y1.192 Z-0.2
N9095 G3 X1.0272 Y0.6432 I2.5578 J-0.0398
N9100 G1 X1.0344 Y0.6133
N9105 X1.0418 Y0.5834
N9110 X1.0481 Y0.5684
N9115 X1.0524 Y0.561
N9120 X1.0576 Y0.5535
N9125 X1.0642 Y0.5457
N9130 X1.0717 Y0.5385
N9135 X1.0792 Y0.5325
N9140 X1.0943 Y0.5236
N9145 X1.1092 Y0.5178
N9150 X1.1241 Y0.5146
N9155 X1.1332 Y0.5131
N9160 X1.1377 Y0.5128 Z-0.1997
N9165 X1.1422 Y0.5125 Z-0.199
N9170 X1.1465 Y0.5122 Z-0.1977
N9175 X1.1505 Y0.5126 Z-0.1959
N9180 X1.1544 Y0.5129 Z-0.1938
N9185 X1.158 Y0.5132 Z-0.1912
N9190 X1.1612 Y0.5135 Z-0.1882
N9195 X1.1641 Y0.5138 Z-0.1848
N9200 X1.1665 Y0.5143 Z-0.1813
N9205 X1.1686 Y0.5147 Z-0.1774
N9210 X1.1701 Y0.5151 Z-0.1734
N9215 X1.1713 Y0.5154 Z-0.1693
N9220 X1.172 Y0.5155 Z-0.165
N9225 X1.1722 Y0.5156 Z-0.1607
N9230 G0 Z0.2
N9235 G1 X0.8877 Y1.3307 F500.
N9240 G0 Z0.0064
N9245 G1 Z-0.0938 F77.
N9250 Y1.3304 Z-0.1017
N9255 X0.8878 Y1.3295 Z-0.1095
N9260 X0.8879 Y1.3279 Z-0.1172
N9265 X0.8881 Y1.3258 Z-0.1248
N9270 X0.8883 Y1.3231 Z-0.1321
N9275 X0.8886 Y1.3198 Z-0.1393
N9280 X0.889 Y1.316 Z-0.1462
N9285 X0.8894 Y1.3116 Z-0.1527
N9290 X0.8898 Y1.3068 Z-0.1589
N9295 X0.8903 Y1.3015 Z-0.1647
N9300 X0.8908 Y1.2957 Z-0.17
N9305 X0.8913 Y1.2896 Z-0.1749
N9310 X0.8919 Y1.283 Z-0.1792
N9315 X0.8925 Y1.2762 Z-0.1831
N9320 X0.8932 Y1.2691 Z-0.1864
N9325 X0.8938 Y1.2617 Z-0.1891
N9330 X0.8945 Y1.2542 Z-0.1912
N9335 X0.8952 Y1.2465 Z-0.1928
N9340 X0.8959 Y1.2387 Z-0.1937
N9345 X0.8966 Y1.2309 Z-0.194
N9350 G3 X1.0042 Y0.6904 I2.548 J0.2267
N9355 G1 X1.0103 Y0.6732
N9360 X1.0207 Y0.6432
N9365 X1.0282 Y0.6133
N9370 X1.0342 Y0.5879
N9375 X1.0356 Y0.5834
N9380 X1.042 Y0.5684
N9385 X1.0463 Y0.561
N9390 X1.0516 Y0.5535
N9395 X1.0573 Y0.5468
N9400 X1.0642 Y0.5401
N9405 X1.077 Y0.5305
N9410 X1.0898 Y0.5236
N9415 X1.0942 Y0.5217
N9420 X1.1092 Y0.517
N9425 X1.1174 Y0.5157
N9430 X1.1216 Y0.5154 Z-0.1938
N9435 X1.1258 Y0.5152 Z-0.1931
N9440 X1.1299 Y0.5149 Z-0.192
N9445 X1.1339 Y0.5153 Z-0.1903
N9450 X1.1377 Y0.5156 Z-0.1883
N9455 X1.1413 Y0.5159 Z-0.1858
N9460 X1.1446 Y0.5162 Z-0.183
N9465 X1.1475 Y0.5165 Z-0.1798
N9470 X1.1502 Y0.5171 Z-0.1761
N9475 X1.1524 Y0.5176 Z-0.1722
N9480 X1.1541 Y0.518 Z-0.168
N9485 X1.1554 Y0.5182 Z-0.1637
N9490 X1.1561 Y0.5184 Z-0.1592
N9495 X1.1564 Y0.5185 Z-0.1547
N9500 G0 Z0.2
N9505 G1 X-0.9087 Y-1.3 F500.
N9510 G0 Z-0.0356
N9515 G1 Z-0.1358 F77.
N9520 X-0.9089 Y-1.2998 Z-0.1437
N9525 X-0.9097 Y-1.2993 Z-0.1515
N9530 X-0.911 Y-1.2985 Z-0.1592
N9535 X-0.9128 Y-1.2974 Z-0.1668
N9540 X-0.9151 Y-1.2959 Z-0.1741
N9545 X-0.9179 Y-1.2941 Z-0.1813
N9550 X-0.9211 Y-1.292 Z-0.1882
N9555 X-0.9248 Y-1.2897 Z-0.1947
N9560 X-0.9289 Y-1.2871 Z-0.2009
N9565 X-0.9334 Y-1.2842 Z-0.2067
N9570 X-0.9382 Y-1.2811 Z-0.212
N9575 X-0.9435 Y-1.2777 Z-0.2169
N9580 X-0.949 Y-1.2742 Z-0.2212
N9585 X-0.9547 Y-1.2705 Z-0.2251
N9590 X-0.9608 Y-1.2667 Z-0.2284
N9595 X-0.967 Y-1.2627 Z-0.2311
N9600 X-0.9734 Y-1.2586 Z-0.2332
N9605 X-0.9799 Y-1.2545 Z-0.2348
N9610 X-0.9864 Y-1.2502 Z-0.2357
N9615 X-0.9931 Y-1.246 Z-0.236
N9620 G3 X-1.4866 Y-1.0008 I-1.3784 J-2.155
N9625 G1 X-1.5138 Y-0.9918
N9630 X-1.5438 Y-0.9808
N9635 X-1.5636 Y-0.9723
N9640 X-1.5738 Y-0.9675
N9645 X-1.6038 Y-0.9507
N9650 X-1.6182 Y-0.9424
N9655 X-1.6338 Y-0.9328
N9660 X-1.6617 Y-0.9125
N9665 X-1.6637 Y-0.911
N9670 X-1.6937 Y-0.8857
N9675 X-1.6972 Y-0.8826
N9680 X-1.7237 Y-0.8564
N9685 X-1.727 Y-0.8527
N9690 X-1.7526 Y-0.8227
N9695 X-1.7537 Y-0.8214
N9700 X-1.7747 Y-0.7928
N9705 X-1.7836 Y-0.7788
N9710 X-1.7928 Y-0.7629
N9715 X-1.8099 Y-0.733
N9720 X-1.8136 Y-0.7255
N9725 X-1.8234 Y-0.7031
N9730 X-1.8347 Y-0.6732
N9735 X-1.8448 Y-0.6432
N9740 X-1.8519 Y-0.6133
N9745 X-1.858 Y-0.5834
N9750 X-1.8622 Y-0.5535
N9755 X-1.8638 Y-0.5236
N9760 X-1.865 Y-0.4936
N9765 Y0.4936
N9770 X-1.8656 Y0.4982 Z-0.2357
N9775 X-1.8661 Y0.5027 Z-0.2349
N9780 X-1.8667 Y0.5071 Z-0.2336
N9785 X-1.8672 Y0.5112 Z-0.2318
N9790 X-1.8683 Y0.5148 Z-0.2296
N9795 X-1.8693 Y0.5181 Z-0.2271
N9800 X-1.8702 Y0.5211 Z-0.2242
N9805 X-1.8711 Y0.5238 Z-0.2209
N9810 X-1.8718 Y0.5262 Z-0.2174
N9815 X-1.8724 Y0.5282 Z-0.2136
N9820 X-1.8731 Y0.5297 Z-0.2096
N9825 X-1.8736 Y0.5308 Z-0.2054
N9830 X-1.8739 Y0.5315 Z-0.201
N9835 Y0.5317 Z-0.1967
N9840 G0 Z0.2
N9845 G1 X-1.9174 Y-1.2017 F500.
N9850 G0 Z-0.0056
N9855 G1 Z-0.1058 F77.
N9860 X-1.9173 Y-1.2014 Z-0.1137
N9865 X-1.9172 Y-1.2005 Z-0.1215
N9870 X-1.9169 Y-1.1989 Z-0.1292
N9875 X-1.9165 Y-1.1968 Z-0.1368
N9880 X-1.916 Y-1.1942 Z-0.1441
N9885 X-1.9154 Y-1.1909 Z-0.1513
N9890 X-1.9147 Y-1.1871 Z-0.1582
N9895 X-1.9139 Y-1.1828 Z-0.1647
N9900 X-1.9131 Y-1.1781 Z-0.1709
N9905 X-1.9121 Y-1.1728 Z-0.1767
N9910 X-1.9111 Y-1.1671 Z-0.182
N9915 X-1.9099 Y-1.161 Z-0.1869
N9920 X-1.9088 Y-1.1546 Z-0.1912
N9925 X-1.9075 Y-1.1479 Z-0.1951
N9930 X-1.9062 Y-1.1408 Z-0.1984
N9935 X-1.9049 Y-1.1336 Z-0.2011
N9940 X-1.9035 Y-1.1261 Z-0.2032
N9945 X-1.9022 Y-1.1185 Z-0.2048
N9950 X-1.9007 Y-1.1108 Z-0.2057
N9955 X-1.8993 Y-1.1031 Z-0.206
N9960 G3 X-1.859 Y-0.5535 I-2.5162 J0.4608
N9965 G1 X-1.8611 Y-0.5236
N9970 X-1.8621 Y-0.4936
N9975 Y0.4936
N9980 X-1.8626 Y0.4982 Z-0.2057
N9985 X-1.8632 Y0.5027 Z-0.2049
N9990 X-1.8637 Y0.5071 Z-0.2036
N9995 X-1.8642 Y0.5112 Z-0.2018
N10000 X-1.8653 Y0.5148 Z-0.1996
N10005 X-1.8664 Y0.5181 Z-0.1971
N10010 X-1.8673 Y0.5211 Z-0.1942
N10015 X-1.8681 Y0.5238 Z-0.1909
N10020 X-1.8689 Y0.5262 Z-0.1874
N10025 X-1.8695 Y0.5282 Z-0.1836
N10030 X-1.8702 Y0.5297 Z-0.1796
N10035 X-1.8706 Y0.5308 Z-0.1754
N10040 X-1.8709 Y0.5315 Z-0.171
N10045 X-1.871 Y0.5317 Z-0.1667
N10050 G0 Z0.2
N10055 G1 X-1.9179 Y-1.2013 F500.
N10060 G0 Z0.0004
N10065 G1 Z-0.0998 F77.
N10070 X-1.9178 Y-1.201 Z-0.1077
N10075 X-1.9177 Y-1.2001 Z-0.1155
N10080 X-1.9174 Y-1.1986 Z-0.1232
N10085 X-1.917 Y-1.1965 Z-0.1308
N10090 X-1.9165 Y-1.1938 Z-0.1381
N10095 X-1.9159 Y-1.1905 Z-0.1453
N10100 X-1.9151 Y-1.1868 Z-0.1522
N10105 X-1.9143 Y-1.1825 Z-0.1587
N10110 X-1.9134 Y-1.1777 Z-0.1649
N10115 X-1.9124 Y-1.1724 Z-0.1707
N10120 X-1.9113 Y-1.1668 Z-0.176
N10125 X-1.9102 Y-1.1607 Z-0.1809
N10130 X-1.909 Y-1.1543 Z-0.1852
N10135 X-1.9077 Y-1.1475 Z-0.1891
N10140 X-1.9064 Y-1.1405 Z-0.1924
N10145 X-1.905 Y-1.1333 Z-0.1951
N10150 X-1.9036 Y-1.1258 Z-0.1972
N10155 X-1.9021 Y-1.1182 Z-0.1988
N10160 X-1.9007 Y-1.1106 Z-0.1997
N10165 X-1.8992 Y-1.1028 Z-0.2
N10170 G3 X-1.8553 Y-0.5535 I-2.5132 J0.4771
N10175 G1 X-1.8572 Y-0.5236
N10180 X-1.8584 Y-0.4936
N10185 Y0.4936
N10190 X-1.8589 Y0.4982 Z-0.1997
N10195 X-1.8595 Y0.5027 Z-0.1989
N10200 X-1.86 Y0.5071 Z-0.1976
N10205 X-1.8606 Y0.5112 Z-0.1958
N10210 X-1.8617 Y0.5148 Z-0.1936
N10215 X-1.8627 Y0.5181 Z-0.1911
N10220 X-1.8636 Y0.5211 Z-0.1882
N10225 X-1.8645 Y0.5238 Z-0.1849
N10230 X-1.8652 Y0.5262 Z-0.1814
N10235 X-1.8658 Y0.5282 Z-0.1776
N10240 X-1.8665 Y0.5297 Z-0.1736
N10245 X-1.867 Y0.5308 Z-0.1694
N10250 X-1.8672 Y0.5315 Z-0.165
N10255 X-1.8673 Y0.5317 Z-0.1607
N10260 G0 Z0.2
N10265 G1 X-1.8537 Y-1.2421 F500.
N10270 G0 Z0.0064
N10275 G1 Z-0.0938 F77.
N10280 Y-1.2418 Z-0.1017
N10285 X-1.8536 Y-1.2409 Z-0.1095
N10290 X-1.8534 Y-1.2394 Z-0.1172
N10295 X-1.8532 Y-1.2373 Z-0.1248
N10300 X-1.8529 Y-1.2346 Z-0.1321
N10305 X-1.8525 Y-1.2313 Z-0.1393
N10310 X-1.8521 Y-1.2275 Z-0.1462
N10315 X-1.8517 Y-1.2231 Z-0.1527
N10320 X-1.8511 Y-1.2183 Z-0.1589
N10325 X-1.8506 Y-1.213 Z-0.1647
N10330 X-1.85 Y-1.2072 Z-0.17
N10335 X-1.8493 Y-1.2011 Z-0.1749
N10340 X-1.8486 Y-1.1946 Z-0.1792
N10345 X-1.8479 Y-1.1877 Z-0.1831
N10350 X-1.8471 Y-1.1806 Z-0.1864
N10355 X-1.8463 Y-1.1733 Z-0.1891
N10360 X-1.8455 Y-1.1658 Z-0.1912
N10365 X-1.8447 Y-1.1581 Z-0.1928
N10370 X-1.8439 Y-1.1503 Z-0.1937
N10375 X-1.843 Y-1.1425 Z-0.194
N10380 G3 X-1.8436 Y-0.5914 I-2.5435 J0.2729
N10385 G1 X-1.8491 Y-0.5535
N10390 X-1.851 Y-0.5236
N10395 X-1.8522 Y-0.4936
N10400 Y0.4936
N10405 X-1.8528 Y0.4982 Z-0.1937
N10410 X-1.8533 Y0.5027 Z-0.1929
N10415 X-1.8539 Y0.5071 Z-0.1916
N10420 X-1.8544 Y0.5112 Z-0.1898
N10425 X-1.8555 Y0.5148 Z-0.1876
N10430 X-1.8565 Y0.5181 Z-0.1851
N10435 X-1.8574 Y0.5211 Z-0.1822
N10440 X-1.8583 Y0.5238 Z-0.1789
N10445 X-1.859 Y0.5262 Z-0.1754
N10450 X-1.8596 Y0.5282 Z-0.1716
N10455 X-1.8603 Y0.5297 Z-0.1676
N10460 X-1.8608 Y0.5308 Z-0.1634
N10465 X-1.861 Y0.5315 Z-0.159
N10470 X-1.8611 Y0.5317 Z-0.1547
N10475 G0 Z0.2
N10480 G1 X1.5164 Y-1.1468 F500.
N10485 G0 Z0.0124
N10490 G1 Z-0.0878 F77.
N10495 X1.5161 Y-1.1467 Z-0.0957
N10500 X1.5153 Y-1.1462 Z-0.1035
N10505 X1.514 Y-1.1455 Z-0.1112
N10510 X1.5121 Y-1.1445 Z-0.1188
N10515 X1.5097 Y-1.1433 Z-0.1261
N10520 X1.5067 Y-1.1418 Z-0.1333
N10525 X1.5033 Y-1.14 Z-0.1402
N10530 X1.4994 Y-1.138 Z-0.1467
N10535 X1.4951 Y-1.1357 Z-0.1529
N10540 X1.4904 Y-1.1332 Z-0.1587
N10545 X1.4853 Y-1.1306 Z-0.164
N10550 X1.4798 Y-1.1277 Z-0.1689
N10555 X1.474 Y-1.1247 Z-0.1732
N10560 X1.4679 Y-1.1215 Z-0.1771
N10565 X1.4616 Y-1.1182 Z-0.1804
N10570 X1.455 Y-1.1148 Z-0.1831
N10575 X1.4483 Y-1.1113 Z-0.1852
N10580 X1.4415 Y-1.1077 Z-0.1868
N10585 X1.4345 Y-1.1041 Z-0.1877
N10590 X1.4276 Y-1.1005 Z-0.188
N10595 G3 X0.9143 Y-0.8998 I-1.1827 J-2.2683
N10600 G1 X0.8843 Y-0.8928
N10605 X0.8543 Y-0.8845
N10610 X0.8244 Y-0.8745
N10615 X0.7944 Y-0.8637
N10620 X0.7661 Y-0.8527
N10625 X0.7344 Y-0.8374
N10630 X0.7068 Y-0.8227
N10635 X0.6905 Y-0.8141
N10640 X0.6231 Y-0.7836
N10645 X0.5535 Y-0.7583
N10650 X0.4825 Y-0.7372
N10655 X0.4105 Y-0.7195
N10660 X0.3379 Y-0.7048
N10665 X0.2649 Y-0.6924
N10670 X0.1915 Y-0.682
N10675 X0.1179 Y-0.6732
N10680 X0.0442 Y-0.6658
N10685 X-0.0296 Y-0.6596
N10690 X-0.1035 Y-0.6543
N10695 X-0.1775 Y-0.6499
N10700 X-0.2515 Y-0.6461
N10705 X-0.3255 Y-0.643
N10710 X-0.3995 Y-0.6403
N10715 X-0.4736 Y-0.6381
N10720 X-0.5477 Y-0.6361
N10725 X-0.6218 Y-0.6345
N10730 X-0.6958 Y-0.6332
N10735 X-0.7699 Y-0.632
N10740 X-0.844 Y-0.6311
N10745 X-0.9181 Y-0.6302
N10750 X-0.9917 Y-0.6216
N10755 X-1.0583 Y-0.5892
N10760 X-1.062 Y-0.5863
N10765 X-1.1201 Y-0.5404
N10770 X-1.1705 Y-0.4861
N10775 X-1.214 Y-0.4261
N10780 X-1.2516 Y-0.3623
N10785 X-1.2795 Y-0.2936
N10790 X-1.3034 Y-0.2235
N10795 X-1.3239 Y-0.1523
N10800 X-1.3415 Y-0.0803
N10805 X-1.3566 Y-0.0078
N10810 X-1.363 Y0.0287
N10815 X-1.3654 Y0.0471
N10820 X-1.3663 Y0.0656
N10825 X-1.3657 Y0.0841
N10830 X-1.3634 Y0.1025
N10835 X-1.3597 Y0.1206
N10840 X-1.3544 Y0.1384
N10845 X-1.3476 Y0.1556
N10850 X-1.3395 Y0.1722
N10855 X-1.3012 Y0.2357
N10860 X-1.2465 Y0.2856
N10865 X-1.1864 Y0.329
N10870 X-1.1226 Y0.3666
N10875 X-1.056 Y0.3991
N10880 X-0.9873 Y0.427
N10885 X-0.9173 Y0.451
N10890 X-0.8461 Y0.4716
N10895 X-0.7741 Y0.4893
N10900 X-0.7016 Y0.5044
N10905 X-0.6286 Y0.5173
N10910 X-0.5554 Y0.5284
N10915 X-0.4819 Y0.5378
N10920 X-0.4082 Y0.5458
N10925 X-0.3344 Y0.5527
N10930 X-0.2606 Y0.5586
N10935 X-0.1867 Y0.5635
N10940 X-0.1127 Y0.5678
N10945 X-0.0387 Y0.5714
N10950 X0.0354 Y0.5745
N10955 X0.109 Y0.5822
N10960 X0.183 Y0.5778
N10965 X0.2542 Y0.5573
N10970 X0.3225 Y0.5285
N10975 X0.3886 Y0.4951
N10980 X0.4533 Y0.459
N10985 X0.5174 Y0.4219
N10990 X0.5357 Y0.4113
N10995 X0.5521 Y0.4033
N11000 X0.5693 Y0.3976
N11005 X0.5872 Y0.3943
N11010 X0.6054 Y0.3933
N11015 X0.6235 Y0.3948
N11020 X0.6413 Y0.3988
N11025 X0.6584 Y0.405
N11030 X0.6745 Y0.4135
N11035 X0.7045 Y0.432
N11040 X0.7074 Y0.4338
N11045 X0.7344 Y0.4482
N11050 X0.7667 Y0.4637
N11055 X0.7944 Y0.4744
N11060 X0.8244 Y0.4853
N11065 X0.8494 Y0.4936
N11070 X0.8536 Y0.4956 Z-0.1877
N11075 X0.8577 Y0.4976 Z-0.1869
N11080 X0.8616 Y0.4995 Z-0.1856
N11085 X0.8654 Y0.5013 Z-0.1838
N11090 X0.8685 Y0.5034 Z-0.1816
N11095 X0.8713 Y0.5055 Z-0.1791
N11100 X0.8739 Y0.5073 Z-0.1762
N11105 X0.8762 Y0.509 Z-0.1729
N11110 X0.8782 Y0.5104 Z-0.1694
N11115 X0.8799 Y0.5116 Z-0.1656
N11120 X0.8811 Y0.5127 Z-0.1616
N11125 X0.882 Y0.5135 Z-0.1574
N11130 X0.8825 Y0.514 Z-0.153
N11135 X0.8827 Y0.5142 Z-0.1487
N11140 G0 Z0.2
N11145 G1 X0.7816 Y-0.9395 F500.
N11150 G0 Z0.0124
N11155 G1 Z-0.0878 F77.
N11160 X0.7814 Y-0.9393 Z-0.0957
N11165 X0.781 Y-0.9385 Z-0.1035
N11170 X0.7802 Y-0.9371 Z-0.1112
N11175 X0.7792 Y-0.9352 Z-0.1188
N11180 X0.7779 Y-0.9328 Z-0.1261
N11185 X0.7763 Y-0.93 Z-0.1333
N11190 X0.7745 Y-0.9266 Z-0.1402
N11195 X0.7724 Y-0.9227 Z-0.1467
N11200 X0.7701 Y-0.9185 Z-0.1529
N11205 X0.7675 Y-0.9138 Z-0.1587
N11210 X0.7648 Y-0.9087 Z-0.164
N11215 X0.7618 Y-0.9033 Z-0.1689
N11220 X0.7587 Y-0.8975 Z-0.1732
N11225 X0.7554 Y-0.8915 Z-0.1771
N11230 X0.752 Y-0.8852 Z-0.1804
N11235 X0.7485 Y-0.8787 Z-0.1831
N11240 X0.7448 Y-0.8721 Z-0.1852
N11245 X0.7411 Y-0.8653 Z-0.1868
N11250 X0.7374 Y-0.8585 Z-0.1877
N11255 X0.7336 Y-0.8515 Z-0.188
N11260 G3 X0.7068 Y-0.8227 I-0.0696 J-0.0379
N11265 G1 X0.7045 Y-0.8213
N11270 X0.6745 Y-0.8027
N11275 X0.6231 Y-0.7629
N11280 X0.5846 Y-0.7292
N11285 X0.5581 Y-0.7031
N11290 X0.5315 Y-0.6732
N11295 X0.5246 Y-0.665
N11300 X0.5163 Y-0.653
N11305 X0.5036 Y-0.6367
N11310 X0.4815 Y-0.6112
N11315 X0.4744 Y-0.6043
N11320 X0.4707 Y-0.6008
N11325 X0.4401 Y-0.5723
N11330 X0.4017 Y-0.5419
N11335 X0.3541 Y-0.5095
N11340 X0.2947 Y-0.4755
N11345 X0.2278 Y-0.4436
N11350 X0.1589 Y-0.4164
N11355 X0.0886 Y-0.3931
N11360 X0.0172 Y-0.3731
N11365 X-0.0549 Y-0.356
N11370 X-0.1275 Y-0.3412
N11375 X-0.2005 Y-0.3286
N11380 X-0.2738 Y-0.3177
N11385 X-0.3473 Y-0.3083
N11390 X-0.4209 Y-0.3002
N11395 X-0.457 Y-0.2918
N11400 X-0.4658 Y-0.2889
N11405 X-0.4701 Y-0.2873
N11410 X-0.4745 Y-0.2857
N11415 G3 X-0.6012 Y-0.3489 Z-0.18 I-0.0317 J-0.095
N11420 X-0.5392 Y-0.4753 I0.095 J-0.0318
N11425 G1 X0.3991 Y-0.8019
N11430 G3 X0.4864 Y-0.7915 I0.0329 J0.0946
N11435 X0.5163 Y-0.653 Z-0.188 I-0.0544 J0.0842
N11440 G1 X0.4946 Y-0.6219
N11445 X0.489 Y-0.6133
N11450 X0.4716 Y-0.5834
N11455 X0.4646 Y-0.5714
N11460 X0.4553 Y-0.5535
N11465 X0.4402 Y-0.5236
N11470 X0.4347 Y-0.5117
N11475 X0.4274 Y-0.4936
N11480 X0.4173 Y-0.4637
N11485 X0.4088 Y-0.4338
N11490 X0.4047 Y-0.4166
N11495 X0.3965 Y-0.374
N11500 X0.3919 Y-0.3441
N11505 X0.3881 Y-0.3141
N11510 X0.386 Y-0.2842
N11515 X0.3853 Y-0.2543
N11520 Y-0.2244
N11525 Y-0.1645
N11530 Y-0.1346
N11535 X0.3861 Y-0.1047
N11540 X0.388 Y-0.0748
N11545 X0.3919 Y-0.0449
N11550 X0.3966 Y-0.015
N11555 X0.4047 Y0.0277
N11560 X0.409 Y0.0449
N11565 X0.4173 Y0.0748
N11570 X0.4275 Y0.1047
N11575 X0.4347 Y0.1226
N11580 X0.4404 Y0.1346
N11585 X0.4554 Y0.1645
N11590 X0.4646 Y0.1822
N11595 X0.4717 Y0.1945
N11600 X0.4892 Y0.2244
N11605 X0.4946 Y0.2325
N11610 X0.5246 Y0.276
N11615 X0.5317 Y0.2842
N11620 X0.5546 Y0.3101
N11625 X0.5572 Y0.3139 Z-0.1877
N11630 X0.5597 Y0.3176 Z-0.1869
N11635 X0.5622 Y0.3213 Z-0.1856
N11640 X0.5646 Y0.3247 Z-0.1838
N11645 X0.5661 Y0.3281 Z-0.1816
N11650 X0.5675 Y0.3313 Z-0.1791
N11655 X0.5688 Y0.3342 Z-0.1762
N11660 X0.57 Y0.3368 Z-0.1729
N11665 X0.571 Y0.339 Z-0.1694
N11670 X0.5718 Y0.3409 Z-0.1656
N11675 X0.5724 Y0.3425 Z-0.1616
N11680 X0.5727 Y0.3436 Z-0.1574
N11685 X0.573 Y0.3443 Z-0.153
N11690 Y0.3446 Z-0.1487
N11695 G0 Z0.2
N11700 G1 X0.353 Y1.2939 F500.
N11705 G0 Z-0.0846
N11710 G1 Z-0.1848 F77.
N11715 X0.3533 Y1.2938 Z-0.1927
N11720 X0.3541 Y1.2933 Z-0.2005
N11725 X0.3554 Y1.2925 Z-0.2082
N11730 X0.3572 Y1.2913 Z-0.2158
N11735 X0.3595 Y1.2899 Z-0.2231
N11740 X0.3623 Y1.2882 Z-0.2303
N11745 X0.3656 Y1.2861 Z-0.2372
N11750 X0.3693 Y1.2838 Z-0.2437
N11755 X0.3734 Y1.2812 Z-0.2499
N11760 X0.3779 Y1.2784 Z-0.2557
N11765 X0.3828 Y1.2753 Z-0.261
N11770 X0.3881 Y1.2721 Z-0.2659
N11775 X0.3936 Y1.2686 Z-0.2702
N11780 X0.3994 Y1.2649 Z-0.2741
N11785 X0.4055 Y1.2612 Z-0.2774
N11790 X0.4118 Y1.2573 Z-0.2801
N11795 X0.4182 Y1.2532 Z-0.2822
N11800 X0.4247 Y1.2491 Z-0.2838
N11805 X0.4314 Y1.245 Z-0.2847
N11810 X0.438 Y1.2408 Z-0.285
N11815 G3 X0.9341 Y1.0009 I1.3556 J2.1694
N11820 G1 X0.9743 Y0.988
N11825 X1.0117 Y0.9723
N11830 X1.0342 Y0.9606
N11835 X1.0671 Y0.9424
N11840 X1.0942 Y0.9245
N11845 X1.1103 Y0.9125
N11850 X1.1241 Y0.9009
N11855 X1.1826 Y0.8553
N11860 X1.2423 Y0.8115
N11865 X1.2951 Y0.7595
N11870 X1.3413 Y0.7016
N11875 X1.3593 Y0.6737
N11880 X1.3646 Y0.6663
N11885 X1.3703 Y0.6592
N11890 X1.3765 Y0.6525
N11895 X1.3801 Y0.6497 Z-0.2847
N11900 X1.3837 Y0.6469 Z-0.2839
N11905 X1.3872 Y0.6442 Z-0.2826
N11910 X1.3905 Y0.6416 Z-0.2808
N11915 X1.3938 Y0.6399 Z-0.2786
N11920 X1.3968 Y0.6383 Z-0.2761
N11925 X1.3996 Y0.6368 Z-0.2732
N11930 X1.4022 Y0.6355 Z-0.2699
N11935 X1.4043 Y0.6343 Z-0.2664
N11940 X1.4062 Y0.6334 Z-0.2626
N11945 X1.4077 Y0.6328 Z-0.2586
N11950 X1.4088 Y0.6323 Z-0.2544
N11955 X1.4095 Y0.632 Z-0.25
N11960 X1.4097 Z-0.2457
N11965 G0 Z0.2
N11970 G1 X1.0712 Y1.029 F500.
N11975 G0 Z-0.0846
N11980 G1 Z-0.1848 F77.
N11985 X1.0713 Y1.0287 Z-0.1927
N11990 X1.0716 Y1.0278 Z-0.2005
N11995 X1.072 Y1.0264 Z-0.2082
N12000 X1.0727 Y1.0244 Z-0.2158
N12005 X1.0736 Y1.0218 Z-0.2231
N12010 X1.0746 Y1.0186 Z-0.2303
N12015 X1.0758 Y1.015 Z-0.2372
N12020 X1.0772 Y1.0109 Z-0.2437
N12025 X1.0787 Y1.0062 Z-0.2499
N12030 X1.0804 Y1.0012 Z-0.2557
N12035 X1.0823 Y0.9957 Z-0.261
N12040 X1.0842 Y0.9898 Z-0.2659
N12045 X1.0863 Y0.9836 Z-0.2702
N12050 X1.0885 Y0.9771 Z-0.2741
N12055 X1.0907 Y0.9703 Z-0.2774
N12060 X1.093 Y0.9633 Z-0.2801
N12065 X1.0954 Y0.9561 Z-0.2822
N12070 X1.0979 Y0.9488 Z-0.2838
N12075 X1.1003 Y0.9414 Z-0.2847
N12080 X1.1028 Y0.9339 Z-0.285
N12085 G3 X1.1241 Y0.9009 I0.0752 J0.0251
N12090 G1 X1.1453 Y0.8826
N12095 X1.1541 Y0.8747
N12100 X1.1764 Y0.8527
N12105 X1.4239 Y0.6051
N12110 X1.4454 Y0.5834
N12115 X1.4741 Y0.5535
N12120 X1.4839 Y0.543
N12125 X1.5438 Y0.4746
N12130 X1.5531 Y0.4637
N12135 X1.5738 Y0.4388
N12140 X1.5991 Y0.4039
N12145 X1.639 Y0.3441
N12150 X1.6587 Y0.3141
N12155 X1.6637 Y0.3062
N12160 X1.6776 Y0.2842
N12165 X1.6937 Y0.2533
N12170 X1.7085 Y0.2244
N12175 X1.7237 Y0.1936
N12180 X1.7378 Y0.1645
N12185 X1.7537 Y0.1314
N12190 X1.7641 Y0.1047
N12195 X1.7753 Y0.0748
N12200 X1.8057 Y-0.015
N12205 X1.8136 Y-0.0412
N12210 X1.8226 Y-0.0748
N12215 X1.8288 Y-0.1047
N12220 X1.8348 Y-0.1346
N12225 X1.8436 Y-0.1787
N12230 X1.8465 Y-0.1945
N12235 X1.8515 Y-0.2244
N12240 X1.855 Y-0.2543
N12245 X1.8575 Y-0.2842
N12250 X1.8596 Y-0.3141
N12255 X1.8615 Y-0.3441
N12260 X1.8633 Y-0.374
N12265 X1.8647 Y-0.4039
N12270 X1.8649 Y-0.4338
N12275 X1.865 Y-0.4637
N12280 Y-0.4936
N12285 X1.8656 Y-0.4982 Z-0.2847
N12290 X1.8661 Y-0.5027 Z-0.2839
N12295 X1.8667 Y-0.5071 Z-0.2826
N12300 X1.8672 Y-0.5112 Z-0.2808
N12305 X1.8683 Y-0.5148 Z-0.2786
N12310 X1.8693 Y-0.5181 Z-0.2761
N12315 X1.8702 Y-0.5211 Z-0.2732
N12320 X1.8711 Y-0.5238 Z-0.2699
N12325 X1.8718 Y-0.5262 Z-0.2664
N12330 X1.8724 Y-0.5282 Z-0.2626
N12335 X1.8731 Y-0.5297 Z-0.2586
N12340 X1.8736 Y-0.5308 Z-0.2544
N12345 X1.8739 Y-0.5315 Z-0.25
N12350 Y-0.5317 Z-0.2457
N12355 G0 Z0.2
N12360 G1 X1.5041 Y0.5665 F500.
N12365 G0 Z-0.1578
N12370 G1 Z-0.258 F77.
N12375 G3 X1.4997 Y0.5277 Z-0.26 I0.0955 J-0.0303
N12380 G1 X1.5001 Y0.5248
N12385 X1.5011 Y0.5222
N12390 X1.5027 Y0.5199
N12395 X1.5061 Y0.5168 Z-0.2597
N12400 X1.5095 Y0.5138 Z-0.2589
N12405 X1.5128 Y0.5109 Z-0.2576
N12410 X1.5159 Y0.5081 Z-0.2558
N12415 X1.5191 Y0.5061 Z-0.2536
N12420 X1.522 Y0.5043 Z-0.2511
N12425 X1.5247 Y0.5027 Z-0.2482
N12430 X1.5272 Y0.5012 Z-0.2449
N12435 X1.5293 Y0.4999 Z-0.2414
N12440 X1.531 Y0.4988 Z-0.2376
N12445 X1.5325 Y0.4981 Z-0.2336
N12450 X1.5336 Y0.4976 Z-0.2294
N12455 X1.5343 Y0.4973 Z-0.225
N12460 X1.5345 Y0.4972 Z-0.2207
N12465 G0 Z0.2
N12470 G1 X2.5152 Y-0.4374 F500.
N12475 G0 Z-0.0596
N12480 G1 Z-0.1598 F77.
N12485 X2.5149 Z-0.1677
N12490 X2.514 Z-0.1755
N12495 X2.5125 Z-0.1832
N12500 X2.5103 Z-0.1908
N12505 X2.5076 Z-0.1981
N12510 X2.5043 Z-0.2053
N12515 X2.5005 Z-0.2122
N12520 X2.4961 Y-0.4375 Z-0.2187
N12525 X2.4912 Z-0.2249
N12530 X2.4859 Z-0.2307
N12535 X2.4801 Z-0.236
N12540 X2.4739 Y-0.4376 Z-0.2409
N12545 X2.4674 Z-0.2452
N12550 X2.4605 Z-0.2491
N12555 X2.4534 Y-0.4377 Z-0.2524
N12560 X2.446 Z-0.2551
N12565 X2.4384 Z-0.2572
N12570 X2.4307 Y-0.4378 Z-0.2588
N12575 X2.4229 Z-0.2597
N12580 X2.415 Z-0.26
N12585 G3 X1.8674 Y-0.4997 I0.0118 J-2.5581
N12590 G1 X1.8655 Y-0.5002
N12595 X1.8641 Y-0.5016
N12600 X1.8635 Y-0.5035
N12605 Y-0.5039
N12610 X1.8639 Y-0.5084 Z-0.2597
N12615 X1.8643 Y-0.5129 Z-0.2588
N12620 X1.8647 Y-0.5173 Z-0.2575
N12625 X1.8651 Y-0.5215 Z-0.2556
N12630 X1.8661 Y-0.5251 Z-0.2533
N12635 X1.867 Y-0.5285 Z-0.2507
N12640 X1.8678 Y-0.5316 Z-0.2477
N12645 X1.8686 Y-0.5343 Z-0.2443
N12650 X1.8692 Y-0.5367 Z-0.2407
N12655 X1.8697 Y-0.5386 Z-0.2368
N12660 X1.8703 Y-0.54 Z-0.2329
N12665 X1.8707 Y-0.541 Z-0.2289
N12670 X1.8709 Y-0.5416 Z-0.2248
N12675 X1.871 Y-0.5418 Z-0.2207
N12680 G0 Z0.2
N12685 G1 X0.6697 Y1.3969 F500.
N12690 G0 Z-0.0536
N12695 G1 Z-0.1538 F77.
N12700 X0.6699 Y1.3966 Z-0.1617
N12705 X0.6705 Y1.3959 Z-0.1695
N12710 X0.6714 Y1.3947 Z-0.1772
N12715 X0.6727 Y1.3929 Z-0.1848
N12720 X0.6743 Y1.3908 Z-0.1921
N12725 X0.6763 Y1.3881 Z-0.1993
N12730 X0.6786 Y1.385 Z-0.2062
N12735 X0.6812 Y1.3815 Z-0.2127
N12740 X0.6841 Y1.3776 Z-0.2189
N12745 X0.6873 Y1.3733 Z-0.2247
N12750 X0.6907 Y1.3687 Z-0.23
N12755 X0.6944 Y1.3637 Z-0.2349
N12760 X0.6983 Y1.3585 Z-0.2392
N12765 X0.7024 Y1.353 Z-0.2431
N12770 X0.7067 Y1.3473 Z-0.2464
N12775 X0.7111 Y1.3413 Z-0.2491
N12780 X0.7156 Y1.3353 Z-0.2512
N12785 X0.7202 Y1.3291 Z-0.2528
N12790 X0.7249 Y1.3228 Z-0.2537
N12795 X0.7296 Y1.3165 Z-0.254
N12800 G3 X1.1044 Y0.9125 I2.0518 J1.5277
N12805 G1 X1.1241 Y0.8965
N12810 X1.1403 Y0.8826
N12815 X1.1541 Y0.8699
N12820 X1.1715 Y0.8527
N12825 X1.4408 Y0.5834
N12830 X1.4696 Y0.5535
N12835 X1.4839 Y0.5378
N12840 X1.5488 Y0.4637
N12845 X1.5731 Y0.4338
N12850 X1.5947 Y0.4039
N12855 X1.6038 Y0.3907
N12860 X1.6349 Y0.3441
N12865 X1.6548 Y0.3141
N12870 X1.6637 Y0.3
N12875 X1.6736 Y0.2842
N12880 X1.6937 Y0.2459
N12885 X1.7047 Y0.2244
N12890 X1.7237 Y0.1859
N12895 X1.734 Y0.1645
N12900 X1.7484 Y0.1346
N12905 X1.7537 Y0.1232
N12910 X1.7607 Y0.1047
N12915 X1.7717 Y0.0748
N12920 X1.7919 Y0.015
N12925 X1.802 Y-0.015
N12930 X1.8112 Y-0.0449
N12935 X1.8191 Y-0.0748
N12940 X1.8253 Y-0.1047
N12945 X1.8313 Y-0.1346
N12950 X1.8373 Y-0.1645
N12955 X1.843 Y-0.1945
N12960 X1.8481 Y-0.2244
N12965 X1.8516 Y-0.2543
N12970 X1.8541 Y-0.2842
N12975 X1.8561 Y-0.3141
N12980 X1.8601 Y-0.374
N12985 X1.8613 Y-0.4039
N12990 X1.8615 Y-0.4338
N12995 X1.8616 Y-0.4637
N13000 Y-0.4936
N13005 X1.8621 Y-0.4982 Z-0.2537
N13010 X1.8627 Y-0.5027 Z-0.2529
N13015 X1.8632 Y-0.5071 Z-0.2516
N13020 X1.8638 Y-0.5112 Z-0.2498
N13025 X1.8649 Y-0.5148 Z-0.2476
N13030 X1.8659 Y-0.5181 Z-0.2451
N13035 X1.8668 Y-0.5211 Z-0.2422
N13040 X1.8677 Y-0.5238 Z-0.2389
N13045 X1.8684 Y-0.5262 Z-0.2354
N13050 X1.869 Y-0.5282 Z-0.2316
N13055 X1.8697 Y-0.5297 Z-0.2276
N13060 X1.8701 Y-0.5308 Z-0.2234
N13065 X1.8704 Y-0.5315 Z-0.219
N13070 X1.8705 Y-0.5317 Z-0.2147
N13075 G0 Z0.2
N13080 G1 X0.7048 Y1.3891 F500.
N13085 G0 Z-0.0476
N13090 G1 Z-0.1478 F77.
N13095 X0.7049 Y1.3888 Z-0.1557
N13100 X0.7055 Y1.3881 Z-0.1635
N13105 X0.7063 Y1.3868 Z-0.1712
N13110 X0.7076 Y1.3851 Z-0.1788
N13115 X0.7091 Y1.3828 Z-0.1861
N13120 X0.711 Y1.3801 Z-0.1933
N13125 X0.7132 Y1.377 Z-0.2002
N13130 X0.7157 Y1.3734 Z-0.2067
N13135 X0.7185 Y1.3694 Z-0.2129
N13140 X0.7215 Y1.365 Z-0.2187
N13145 X0.7249 Y1.3603 Z-0.224
N13150 X0.7284 Y1.3552 Z-0.2289
N13155 X0.7321 Y1.3498 Z-0.2332
N13160 X0.7361 Y1.3442 Z-0.2371
N13165 X0.7401 Y1.3384 Z-0.2404
N13170 X0.7444 Y1.3323 Z-0.2431
N13175 X0.7487 Y1.3261 Z-0.2452
N13180 X0.7531 Y1.3198 Z-0.2468
N13185 X0.7576 Y1.3134 Z-0.2477
N13190 X0.7621 Y1.3069 Z-0.248
N13195 G3 X1.1241 Y0.8914 I2.0984 J1.4631
N13200 G1 X1.1344 Y0.8826
N13205 X1.1541 Y0.8642
N13210 X1.1659 Y0.8527
N13215 X1.4351 Y0.5834
N13220 X1.4539 Y0.5641
N13225 X1.4642 Y0.5535
N13230 X1.4839 Y0.5317
N13235 X1.5438 Y0.4633
N13240 X1.5679 Y0.4338
N13245 X1.5895 Y0.4039
N13250 X1.6038 Y0.3835
N13255 X1.6501 Y0.3141
N13260 X1.6637 Y0.2927
N13265 X1.669 Y0.2842
N13270 X1.6937 Y0.2374
N13275 X1.7002 Y0.2244
N13280 X1.7237 Y0.1768
N13285 X1.744 Y0.1346
N13290 X1.7537 Y0.1126
N13295 X1.7567 Y0.1047
N13300 X1.7674 Y0.0748
N13305 X1.7877 Y0.015
N13310 X1.7978 Y-0.015
N13315 X1.8074 Y-0.0449
N13320 X1.8151 Y-0.0748
N13325 X1.8212 Y-0.1047
N13330 X1.8273 Y-0.1346
N13335 X1.8332 Y-0.1645
N13340 X1.8389 Y-0.1945
N13345 X1.844 Y-0.2244
N13350 X1.8476 Y-0.2543
N13355 X1.8501 Y-0.2842
N13360 X1.8521 Y-0.3141
N13365 X1.8541 Y-0.3441
N13370 X1.8559 Y-0.374
N13375 X1.8572 Y-0.4039
N13380 X1.8575 Y-0.4338
N13385 X1.8576 Y-0.4637
N13390 Y-0.4936
N13395 X1.8581 Y-0.4982 Z-0.2477
N13400 X1.8587 Y-0.5027 Z-0.2469
N13405 X1.8592 Y-0.5071 Z-0.2456
N13410 X1.8598 Y-0.5112 Z-0.2438
N13415 X1.8609 Y-0.5148 Z-0.2416
N13420 X1.8619 Y-0.5181 Z-0.2391
N13425 X1.8628 Y-0.5211 Z-0.2362
N13430 X1.8637 Y-0.5238 Z-0.2329
N13435 X1.8644 Y-0.5262 Z-0.2294
N13440 X1.865 Y-0.5282 Z-0.2256
N13445 X1.8657 Y-0.5297 Z-0.2216
N13450 X1.8661 Y-0.5308 Z-0.2174
N13455 X1.8664 Y-0.5315 Z-0.213
N13460 X1.8665 Y-0.5317 Z-0.2087
N13465 G0 Z0.2
N13470 G1 X0.5969 Y1.3802 F500.
N13475 G0 Z-0.0416
N13480 G1 Z-0.1418 F77.
N13485 X0.5971 Y1.38 Z-0.1497
N13490 X0.5977 Y1.3793 Z-0.1575
N13495 X0.5987 Y1.3781 Z-0.1652
N13500 X0.6001 Y1.3765 Z-0.1728
N13505 X0.6018 Y1.3745 Z-0.1801
N13510 X0.604 Y1.372 Z-0.1873
N13515 X0.6065 Y1.369 Z-0.1942
N13520 X0.6093 Y1.3657 Z-0.2007
N13525 X0.6125 Y1.362 Z-0.2069
N13530 X0.616 Y1.358 Z-0.2127
N13535 X0.6198 Y1.3536 Z-0.218
N13540 X0.6238 Y1.3489 Z-0.2229
N13545 X0.628 Y1.3439 Z-0.2272
N13550 X0.6325 Y1.3387 Z-0.2311
N13555 X0.6372 Y1.3333 Z-0.2344
N13560 X0.642 Y1.3277 Z-0.2371
N13565 X0.6469 Y1.322 Z-0.2392
N13570 X0.6519 Y1.3161 Z-0.2408
N13575 X0.657 Y1.3102 Z-0.2417
N13580 X0.6622 Y1.3042 Z-0.242
N13585 G3 X1.0642 Y0.9273 I1.9405 J1.6668
N13590 G1 X1.0853 Y0.9125
N13595 X1.0942 Y0.906
N13600 X1.1242 Y0.8826
N13605 X1.1541 Y0.8545
N13610 X1.156 Y0.8527
N13615 X1.1861 Y0.8227
N13620 X1.4255 Y0.5834
N13625 X1.4549 Y0.5535
N13630 X1.4818 Y0.5236
N13635 X1.5138 Y0.4871
N13640 X1.5438 Y0.4529
N13645 X1.5592 Y0.4338
N13650 X1.581 Y0.4039
N13655 X1.6019 Y0.374
N13660 X1.6418 Y0.3141
N13665 X1.661 Y0.2842
N13670 X1.677 Y0.2543
N13675 X1.6926 Y0.2244
N13680 X1.7074 Y0.1945
N13685 X1.7237 Y0.161
N13690 X1.7365 Y0.1346
N13695 X1.7491 Y0.1047
N13700 X1.7537 Y0.0934
N13705 X1.7602 Y0.0748
N13710 X1.7906 Y-0.015
N13715 X1.7999 Y-0.0449
N13720 X1.8082 Y-0.0748
N13725 X1.8143 Y-0.1047
N13730 X1.8203 Y-0.1346
N13735 X1.8262 Y-0.1645
N13740 X1.832 Y-0.1945
N13745 X1.8371 Y-0.2244
N13750 X1.8407 Y-0.2543
N13755 X1.8433 Y-0.2842
N13760 X1.8436 Y-0.2886
N13765 X1.8472 Y-0.3441
N13770 X1.8491 Y-0.374
N13775 X1.8504 Y-0.4039
N13780 X1.8506 Y-0.4338
N13785 X1.8507 Y-0.4637
N13790 Y-0.4936
N13795 X1.8513 Y-0.4982 Z-0.2417
N13800 X1.8519 Y-0.5027 Z-0.2409
N13805 X1.8524 Y-0.5071 Z-0.2396
N13810 X1.8529 Y-0.5112 Z-0.2378
N13815 X1.854 Y-0.5148 Z-0.2356
N13820 X1.855 Y-0.5181 Z-0.2331
N13825 X1.856 Y-0.5211 Z-0.2302
N13830 X1.8568 Y-0.5238 Z-0.2269
N13835 X1.8575 Y-0.5262 Z-0.2234
N13840 X1.8582 Y-0.5282 Z-0.2196
N13845 X1.8588 Y-0.5297 Z-0.2156
N13850 X1.8593 Y-0.5308 Z-0.2114
N13855 X1.8596 Y-0.5315 Z-0.207
N13860 X1.8597 Y-0.5317 Z-0.2027
N13865 G0 Z0.2
N13870 G1 X-0.9087 Y-1.3 F500.
N13875 G0 Z-0.0846
N13880 G1 Z-0.1848 F77.
N13885 X-0.9089 Y-1.2998 Z-0.1927
N13890 X-0.9097 Y-1.2993 Z-0.2005
N13895 X-0.911 Y-1.2985 Z-0.2082
N13900 X-0.9128 Y-1.2974 Z-0.2158
N13905 X-0.9151 Y-1.2959 Z-0.2231
N13910 X-0.9179 Y-1.2941 Z-0.2303
N13915 X-0.9211 Y-1.292 Z-0.2372
N13920 X-0.9248 Y-1.2897 Z-0.2437
N13925 X-0.9289 Y-1.2871 Z-0.2499
N13930 X-0.9334 Y-1.2842 Z-0.2557
N13935 X-0.9382 Y-1.2811 Z-0.261
N13940 X-0.9435 Y-1.2777 Z-0.2659
N13945 X-0.949 Y-1.2742 Z-0.2702
N13950 X-0.9547 Y-1.2705 Z-0.2741
N13955 X-0.9608 Y-1.2667 Z-0.2774
N13960 X-0.967 Y-1.2627 Z-0.2801
N13965 X-0.9734 Y-1.2586 Z-0.2822
N13970 X-0.9799 Y-1.2545 Z-0.2838
N13975 X-0.9864 Y-1.2502 Z-0.2847
N13980 X-0.9931 Y-1.246 Z-0.285
N13985 G3 X-1.4866 Y-1.0008 I-1.3784 J-2.155
N13990 G1 X-1.5138 Y-0.9918
N13995 X-1.5438 Y-0.9808
N14000 X-1.5636 Y-0.9723
N14005 X-1.5738 Y-0.9675
N14010 X-1.6038 Y-0.9507
N14015 X-1.6182 Y-0.9424
N14020 X-1.6338 Y-0.9328
N14025 X-1.6617 Y-0.9125
N14030 X-1.6637 Y-0.911
N14035 X-1.6937 Y-0.8857
N14040 X-1.6972 Y-0.8826
N14045 X-1.7237 Y-0.8564
N14050 X-1.727 Y-0.8527
N14055 X-1.7526 Y-0.8227
N14060 X-1.7537 Y-0.8214
N14065 X-1.7747 Y-0.7928
N14070 X-1.7836 Y-0.7788
N14075 X-1.7928 Y-0.7629
N14080 X-1.8099 Y-0.733
N14085 X-1.8136 Y-0.7255
N14090 X-1.8234 Y-0.7031
N14095 X-1.8347 Y-0.6732
N14100 X-1.8448 Y-0.6432
N14105 X-1.8519 Y-0.6133
N14110 X-1.858 Y-0.5834
N14115 X-1.8622 Y-0.5535
N14120 X-1.8638 Y-0.5236
N14125 X-1.865 Y-0.4936
N14130 Y0.4936
N14135 X-1.8656 Y0.4982 Z-0.2847
N14140 X-1.8661 Y0.5027 Z-0.2839
N14145 X-1.8667 Y0.5071 Z-0.2826
N14150 X-1.8672 Y0.5112 Z-0.2808
N14155 X-1.8683 Y0.5148 Z-0.2786
N14160 X-1.8693 Y0.5181 Z-0.2761
N14165 X-1.8702 Y0.5211 Z-0.2732
N14170 X-1.8711 Y0.5238 Z-0.2699
N14175 X-1.8718 Y0.5262 Z-0.2664
N14180 X-1.8724 Y0.5282 Z-0.2626
N14185 X-1.8731 Y0.5297 Z-0.2586
N14190 X-1.8736 Y0.5308 Z-0.2544
N14195 X-1.8739 Y0.5315 Z-0.25
N14200 Y0.5317 Z-0.2457
N14205 G0 Z0.2
N14210 Z0.4
G00 X-1.894 Y-1.05
G00Z-.1
M97 P1000 L17
G00G90Z.4
G00X.631Y1.439
G00Z-.1
M97P1001 L17
G00G90Z.4
G91G28Z0.
M01


(Adaptive1 3)
N14235 M1
N14240 T2 M6
N14245 S6500 M3
N14250 G54
N14270 M8
N14275 G1 X0.8665 Y-0.5778 F500.
N14280 G0 G43 Z0.4 H2
N14290 G0 Z0.2
N14295 Z-0.0617
N14300 G1 Z-0.0809 F60.
N14305 X0.8666 Y-0.5775 Z-0.0842
N14310 X0.8668 Y-0.5766 Z-0.0874
N14315 X0.8672 Y-0.5753 Z-0.0904
N14320 X0.8676 Y-0.5734 Z-0.0932
N14325 X0.8682 Y-0.5711 Z-0.0955
N14330 X0.8689 Y-0.5685 Z-0.0974
N14335 X0.8697 Y-0.5655 Z-0.0988
N14340 X0.8705 Y-0.5624 Z-0.0997
N14345 X0.8713 Y-0.5592 Z-0.1
N14350 G3 X0.8863 Y-0.455 I-0.4736 J0.1213
N14355 G1 Y-0.4494
N14360 X0.8862 Y-0.4466
N14365 X0.8853 Y-0.444
N14370 X0.8836 Y-0.4419
N14375 X0.8788 Y-0.4375
N14380 X0.8731 Y-0.4321
N14385 X0.8714 Y-0.4304
N14390 X0.8599 Y-0.4189
N14395 X0.8559 Y-0.4142
N14400 X0.8501 Y-0.4071
N14405 X0.8461 Y-0.4017
N14410 X0.8381 Y-0.3902
N14415 X0.8343 Y-0.3845
N14420 X0.8329 Y-0.3824
N14425 X0.8309 Y-0.3788
N14430 X0.8271 Y-0.3716
N14435 X0.825 Y-0.3673
N14440 X0.8214 Y-0.3595
N14445 X0.8197 Y-0.3558
N14450 X0.8157 Y-0.3467
N14455 X0.8148 Y-0.3443
N14460 X0.8128 Y-0.3386
N14465 X0.8111 Y-0.3329
N14470 X0.8081 Y-0.3214
N14475 X0.8065 Y-0.3156
N14480 X0.8052 Y-0.3099
N14485 X0.8041 Y-0.3042
N14490 X0.8032 Y-0.2984
N14495 X0.8026 Y-0.2927
N14500 X0.8021 Y-0.2869
N14505 X0.8015 Y-0.2812
N14510 X0.8011 Y-0.2755
N14515 X0.8008 Y-0.2697
N14520 X0.8005 Y-0.264
N14525 Y-0.132
N14530 Y-0.1263
N14535 X0.801 Y-0.1148
N14540 X0.802 Y-0.1033
N14545 X0.803 Y-0.0918
N14550 X0.8039 Y-0.0861
N14555 X0.8049 Y-0.0803
N14560 X0.8063 Y-0.0746
N14565 X0.8078 Y-0.0689
N14570 X0.8109 Y-0.0574
N14575 X0.8125 Y-0.0516
N14580 X0.8144 Y-0.0459
N14585 X0.8157 Y-0.0427
N14590 X0.8193 Y-0.0344
N14595 X0.8214 Y-0.0297
N14600 X0.8246 Y-0.023
N14605 X0.8271 Y-0.0177
N14610 X0.8303 Y-0.0115
N14615 X0.8329 Y-0.007
N14620 X0.8337 Y-0.0057
N14625 X0.8374 Y0.
N14630 X0.8454 Y0.0115
N14635 X0.8496 Y0.0172
N14640 X0.8559 Y0.0253
N14645 X0.859 Y0.0287
N14650 X0.8616 Y0.0314
N14655 X0.8704 Y0.0402
N14660 X0.8731 Y0.0429
N14665 X0.8788 Y0.0485
N14670 X0.8824 Y0.0516
N14675 X0.8846 Y0.0534
N14680 X0.8903 Y0.0577
N14685 X0.8961 Y0.0619
N14690 X0.9061 Y0.0689
N14695 X0.9076 Y0.0699
N14700 X0.9133 Y0.0736
N14705 X0.915 Y0.0746
N14710 X0.9191 Y0.0769
N14715 X0.9261 Y0.0803
N14720 X0.9305 Y0.0825
N14725 X0.9382 Y0.0861
N14730 X0.942 Y0.0879
N14735 X0.9515 Y0.0918
N14740 X0.9535 Y0.0926
N14745 X0.9593 Y0.0944
N14750 X0.965 Y0.096
N14755 X0.9765 Y0.0991
N14760 X0.988 Y0.102
N14765 X0.9937 Y0.1029
N14770 X0.9995 Y0.1038
N14775 X1.011 Y0.1048
N14780 X1.0224 Y0.1058
N14785 X1.0282 Y0.1059
N14790 X1.0339 Y0.1061
N14795 X1.0397 Y0.1057
N14800 X1.0454 Y0.1053
N14805 X1.0512 Y0.1048
N14810 X1.0569 Y0.1043
N14815 X1.0627 Y0.1037
N14820 X1.0684 Y0.103
N14825 X1.0741 Y0.1019
N14830 X1.0799 Y0.1007
N14835 X1.0856 Y0.0992
N14840 X1.0971 Y0.0961
N14845 X1.1029 Y0.0946
N14850 X1.1086 Y0.0926
N14855 X1.1144 Y0.0905
N14860 X1.1201 Y0.088
N14865 X1.1258 Y0.0854
N14870 X1.1316 Y0.0827
N14875 X1.1373 Y0.08
N14880 X1.1431 Y0.077
N14885 X1.1488 Y0.0738
N14890 X1.1546 Y0.0701
N14895 X1.1603 Y0.0661
N14900 X1.1661 Y0.0621
N14905 X1.1727 Y0.0574
N14910 X1.1775 Y0.0537
N14915 X1.1833 Y0.0489
N14920 X1.1864 Y0.0459
N14925 X1.1979 Y0.0344
N14930 X1.2063 Y0.0257
N14935 X1.2086 Y0.023
N14940 X1.212 Y0.0185
N14945 X1.2129 Y0.0172
N14950 X1.2171 Y0.0115
N14955 X1.2235 Y0.0023
N14960 X1.225 Y0.
N14965 X1.2292 Y-0.0065
N14970 X1.2323 Y-0.0115
N14975 X1.2352 Y-0.0172
N14980 X1.2379 Y-0.023
N14985 X1.2433 Y-0.0344
N14990 X1.2458 Y-0.0402
N14995 X1.2465 Y-0.0417
N15000 X1.2481 Y-0.0459
N15005 X1.2499 Y-0.0516
N15010 X1.2516 Y-0.0574
N15015 X1.2562 Y-0.0746
N15020 X1.2576 Y-0.0803
N15025 X1.2586 Y-0.0861
N15030 X1.2595 Y-0.0918
N15035 X1.2605 Y-0.1033
N15040 X1.2615 Y-0.1148
N15045 X1.262 Y-0.1263
N15050 Y-0.132
N15055 Y-0.264
N15060 X1.2617 Y-0.2697
N15065 X1.2614 Y-0.2755
N15070 X1.261 Y-0.2812
N15075 X1.2605 Y-0.2869
N15080 X1.2599 Y-0.2927
N15085 X1.2593 Y-0.2984
N15090 X1.2584 Y-0.3042
N15095 X1.2573 Y-0.3099
N15100 X1.256 Y-0.3156
N15105 X1.2514 Y-0.3329
N15110 X1.2496 Y-0.3386
N15115 X1.2476 Y-0.3443
N15120 X1.2465 Y-0.3476
N15125 X1.2454 Y-0.3501
N15130 X1.2428 Y-0.3558
N15135 X1.2375 Y-0.3673
N15140 X1.235 Y-0.3725
N15145 X1.2347 Y-0.373
N15150 X1.2317 Y-0.3788
N15155 X1.2292 Y-0.3829
N15160 X1.2235 Y-0.3914
N15165 X1.2204 Y-0.396
N15170 X1.2164 Y-0.4017
N15175 X1.2122 Y-0.4075
N15180 X1.212 Y-0.4078
N15185 X1.2077 Y-0.4132
N15190 X1.2063 Y-0.4149
N15195 X1.2025 Y-0.4189
N15200 X1.2005 Y-0.421
N15205 X1.1968 Y-0.4247
N15210 X1.189 Y-0.4325
N15215 X1.1853 Y-0.4361
N15220 X1.1833 Y-0.438
N15225 X1.1789 Y-0.4419
N15230 X1.1775 Y-0.4429
N15235 X1.1718 Y-0.4473
N15240 X1.1661 Y-0.4513
N15245 X1.1631 Y-0.4534
N15250 X1.1546 Y-0.4593
N15255 X1.1488 Y-0.4631
N15260 X1.1458 Y-0.4648
N15265 X1.1431 Y-0.4663
N15270 X1.1373 Y-0.4692
N15275 X1.1258 Y-0.4746
N15280 X1.1201 Y-0.4772
N15285 X1.1144 Y-0.4797
N15290 X1.108 Y-0.4821
N15295 X1.1029 Y-0.4837
N15300 X1.0971 Y-0.4853
N15305 X1.0914 Y-0.4869
N15310 X1.0856 Y-0.4884
N15315 X1.0799 Y-0.4899
N15320 X1.0741 Y-0.4911
N15325 X1.0684 Y-0.4922
N15330 X1.0627 Y-0.4929
N15335 X1.0567 Y-0.4935
N15340 X1.0512 Y-0.494
N15345 X1.0454 Y-0.4945
N15350 X1.0397 Y-0.4949
N15355 X1.0339 Y-0.4953
N15360 X1.0282 Y-0.4952
N15365 X1.0224 Y-0.495
N15370 X1.011 Y-0.494
N15375 X0.9995 Y-0.493
N15380 X0.9937 Y-0.4921
N15385 X0.988 Y-0.4912
N15390 X0.9765 Y-0.4883
N15395 X0.965 Y-0.4853
N15400 X0.9593 Y-0.4835
N15405 X0.9535 Y-0.4818
N15410 X0.9478 Y-0.4795
N15415 X0.942 Y-0.4771
N15420 X0.9404 Y-0.4763
N15425 X0.9305 Y-0.4717
N15430 X0.9282 Y-0.4706
N15435 X0.9191 Y-0.4661
N15440 X0.9166 Y-0.4648
N15445 X0.9133 Y-0.4628
N15450 X0.9076 Y-0.4591
N15455 X0.9018 Y-0.4551
N15460 X0.8961 Y-0.4511
N15465 X0.8914 Y-0.4476
N15470 X0.8836 Y-0.4419
N15475 G3 X0.8729 Y-0.4374 I-0.0124 J-0.0146
N15480 G1 X0.8713 Y-0.4373 Z-0.0999
N15485 X0.8686 Y-0.4379 Z-0.0995
N15490 X0.8661 Y-0.4384 Z-0.0987
N15495 X0.8637 Y-0.4389 Z-0.0975
N15500 X0.8618 Y-0.4402 Z-0.096
N15505 X0.8601 Y-0.4414 Z-0.0941
N15510 X0.8586 Y-0.4424 Z-0.0919
N15515 X0.8574 Y-0.4432 Z-0.0894
N15520 X0.8567 Y-0.4441 Z-0.0867
N15525 X0.8562 Y-0.4446 Z-0.0838
N15530 X0.8561 Y-0.4448 Z-0.0809
N15535 G0 Z0.2
N15540 G1 X0.5033 Y0.6732 F500.
N15545 G0 Z-0.1597
N15550 G1 Z-0.1789 F60.
N15555 X0.5035 Y0.673 Z-0.1822
N15560 X0.5041 Y0.6723 Z-0.1854
N15565 X0.505 Y0.6712 Z-0.1884
N15570 X0.5063 Y0.6698 Z-0.1912
N15575 X0.5078 Y0.668 Z-0.1935
N15580 X0.5096 Y0.666 Z-0.1954
N15585 X0.5116 Y0.6637 Z-0.1968
N15590 X0.5137 Y0.6612 Z-0.1977
N15595 X0.5159 Y0.6587 Z-0.198
N15600 G3 X0.5931 Y0.5871 I0.3692 J0.3204
N15605 G1 X0.5956 Y0.5854
N15610 X0.6031 Y0.5794
N15615 X0.6087 Y0.5739
N15620 X0.6141 Y0.5681
N15625 X0.6146 Y0.5675
N15630 X0.6185 Y0.5624
N15635 X0.6204 Y0.5598
N15640 X0.6224 Y0.5567
N15645 X0.6261 Y0.5504
N15650 X0.6287 Y0.5452
N15655 X0.6319 Y0.538
N15660 X0.6333 Y0.5337
N15665 X0.6351 Y0.528
N15670 X0.6365 Y0.5222
N15675 X0.6376 Y0.5171
N15680 X0.6377 Y0.5165
N15685 X0.6383 Y0.5108
N15690 X0.6388 Y0.505
N15695 X0.6389 Y0.4993
N15700 X0.639 Y0.4935
N15705 Y0.4763
N15710 Y0.3902
N15715 X0.6398 Y0.3736
N15720 X0.642 Y0.357
N15725 X0.6455 Y0.3407
N15730 X0.6505 Y0.3248
N15735 X0.6566 Y0.3093
N15740 X0.6637 Y0.2942
N15745 X0.6714 Y0.2794
N15750 X0.6798 Y0.2649
N15755 X0.6889 Y0.2509
N15760 X0.6986 Y0.2374
N15765 X0.709 Y0.2243
N15770 X0.7197 Y0.2115
N15775 X0.7308 Y0.1991
N15780 X0.7424 Y0.187
N15785 X0.7544 Y0.1754
N15790 X0.7668 Y0.1643
N15795 X0.7796 Y0.1536
N15800 X0.7927 Y0.1432
N15805 X0.8059 Y0.1331
N15810 X0.8196 Y0.1236
N15815 X0.8337 Y0.1145
N15820 X0.848 Y0.1059
N15825 X0.8625 Y0.0977
N15830 X0.8772 Y0.0898
N15835 X0.892 Y0.0822
N15840 X0.896 Y0.0803
N15845 X0.9035 Y0.0778
N15850 X0.9114 Y0.077
N15855 X0.9192 Y0.078
N15860 X0.9266 Y0.0806
N15865 X0.9305 Y0.0825
N15870 X0.9382 Y0.0861
N15875 X0.942 Y0.0879
N15880 X0.9515 Y0.0918
N15885 X0.9535 Y0.0926
N15890 X0.9593 Y0.0944
N15895 X0.965 Y0.096
N15900 X0.9765 Y0.0991
N15905 X0.988 Y0.102
N15910 X0.9937 Y0.1029
N15915 X0.9995 Y0.1038
N15920 X1.011 Y0.1048
N15925 X1.0224 Y0.1058
N15930 X1.0282 Y0.1059
N15935 X1.0339 Y0.1061
N15940 X1.0397 Y0.1057
N15945 X1.0454 Y0.1053
N15950 X1.0512 Y0.1048
N15955 X1.0569 Y0.1043
N15960 X1.0627 Y0.1037
N15965 X1.0684 Y0.103
N15970 X1.0741 Y0.1019
N15975 X1.0799 Y0.1007
N15980 X1.0856 Y0.0992
N15985 X1.0971 Y0.0961
N15990 X1.1029 Y0.0946
N15995 X1.1086 Y0.0926
N16000 X1.1144 Y0.0905
N16005 X1.1201 Y0.088
N16010 X1.1258 Y0.0854
N16015 X1.1316 Y0.0827
N16020 X1.1373 Y0.08
N16025 X1.1431 Y0.077
N16030 X1.1488 Y0.0738
N16035 X1.1546 Y0.0701
N16040 X1.1603 Y0.0661
N16045 X1.1661 Y0.0621
N16050 X1.1727 Y0.0574
N16055 X1.1775 Y0.0537
N16060 X1.1833 Y0.0489
N16065 X1.1864 Y0.0459
N16070 X1.1979 Y0.0344
N16075 X1.2063 Y0.0257
N16080 X1.2086 Y0.023
N16085 X1.212 Y0.0185
N16090 X1.2129 Y0.0172
N16095 X1.2171 Y0.0115
N16100 X1.2235 Y0.0023
N16105 X1.225 Y0.
N16110 X1.2292 Y-0.0065
N16115 X1.2323 Y-0.0115
N16120 X1.2352 Y-0.0172
N16125 X1.2379 Y-0.023
N16130 X1.2433 Y-0.0344
N16135 X1.2458 Y-0.0402
N16140 X1.2465 Y-0.0417
N16145 X1.2481 Y-0.0459
N16150 X1.2499 Y-0.0516
N16155 X1.2516 Y-0.0574
N16160 X1.2562 Y-0.0746
N16165 X1.2576 Y-0.0803
N16170 X1.2586 Y-0.0861
N16175 X1.2595 Y-0.0918
N16180 X1.2605 Y-0.1033
N16185 X1.2615 Y-0.1148
N16190 X1.262 Y-0.1263
N16195 Y-0.132
N16200 Y-0.264
N16205 X1.2617 Y-0.2697
N16210 X1.2614 Y-0.2755
N16215 X1.261 Y-0.2812
N16220 X1.2605 Y-0.2869
N16225 X1.2599 Y-0.2927
N16230 X1.2593 Y-0.2984
N16235 X1.2584 Y-0.3042
N16240 X1.2573 Y-0.3099
N16245 X1.256 Y-0.3156
N16250 X1.2514 Y-0.3329
N16255 X1.2496 Y-0.3386
N16260 X1.2476 Y-0.3443
N16265 X1.2465 Y-0.3476
N16270 X1.2454 Y-0.3501
N16275 X1.2428 Y-0.3558
N16280 X1.2375 Y-0.3673
N16285 X1.235 Y-0.3725
N16290 X1.2347 Y-0.373
N16295 X1.2317 Y-0.3788
N16300 X1.2292 Y-0.3829
N16305 X1.2235 Y-0.3914
N16310 X1.2204 Y-0.396
N16315 X1.2164 Y-0.4017
N16320 X1.2122 Y-0.4075
N16325 X1.212 Y-0.4078
N16330 X1.2077 Y-0.4132
N16335 X1.2063 Y-0.4149
N16340 X1.2025 Y-0.4189
N16345 X1.2005 Y-0.421
N16350 X1.1968 Y-0.4247
N16355 X1.189 Y-0.4325
N16360 X1.1853 Y-0.4361
N16365 X1.1833 Y-0.438
N16370 X1.1789 Y-0.4419
N16375 X1.1775 Y-0.4429
N16380 X1.1718 Y-0.4473
N16385 X1.1661 Y-0.4513
N16390 X1.1631 Y-0.4534
N16395 X1.1546 Y-0.4593
N16400 X1.1488 Y-0.4631
N16405 X1.1458 Y-0.4648
N16410 X1.1431 Y-0.4663
N16415 X1.1373 Y-0.4692
N16420 X1.1258 Y-0.4746
N16425 X1.1201 Y-0.4772
N16430 X1.1144 Y-0.4797
N16435 X1.108 Y-0.4821
N16440 X1.1029 Y-0.4837
N16445 X1.0971 Y-0.4853
N16450 X1.0914 Y-0.4869
N16455 X1.0856 Y-0.4884
N16460 X1.0799 Y-0.4899
N16465 X1.0741 Y-0.4911
N16470 X1.0684 Y-0.4922
N16475 X1.0627 Y-0.4929
N16480 X1.0567 Y-0.4935
N16485 X1.0512 Y-0.494
N16490 X1.0454 Y-0.4945
N16495 X1.0397 Y-0.4949
N16500 X1.0339 Y-0.4953
N16505 X1.0282 Y-0.4952
N16510 X1.0224 Y-0.495
N16515 X1.011 Y-0.494
N16520 X0.9995 Y-0.493
N16525 X0.9937 Y-0.4921
N16530 X0.988 Y-0.4912
N16535 X0.9765 Y-0.4883
N16540 X0.965 Y-0.4853
N16545 X0.9593 Y-0.4835
N16550 X0.9535 Y-0.4818
N16555 X0.9478 Y-0.4795
N16560 X0.942 Y-0.4771
N16565 X0.9404 Y-0.4763
N16570 X0.9305 Y-0.4717
N16575 X0.9282 Y-0.4706
N16580 X0.9191 Y-0.4661
N16585 X0.9166 Y-0.4648
N16590 X0.9133 Y-0.4628
N16595 X0.9076 Y-0.4591
N16600 X0.8944 Y-0.4514
N16605 X0.8838 Y-0.4465
N16610 X0.8709 Y-0.4419
N16615 X0.8547 Y-0.4378
N16620 X0.8382 Y-0.4352
N16625 X0.8216 Y-0.4338
N16630 X0.8049 Y-0.4334
N16635 X0.7882 Y-0.434
N16640 X0.7716 Y-0.4357
N16645 X0.7551 Y-0.4382
N16650 X0.7388 Y-0.4415
N16655 X0.7225 Y-0.4453
N16660 X0.7064 Y-0.4497
N16665 X0.6906 Y-0.4549
N16670 X0.6749 Y-0.4607
N16675 X0.6612 Y-0.4663
N16680 X0.6539 Y-0.4703
N16685 X0.6477 Y-0.476
N16690 X0.643 Y-0.4829
N16695 X0.64 Y-0.4907
N16700 X0.6389 Y-0.499
N16705 G3 X0.6586 Y-0.5177 Z-0.19 I0.0191 J0.0005
N16710 G1 X0.66 Y-0.5176
N16715 X0.8985 Y-0.4938
N16720 G3 X0.9123 Y-0.4858 I-0.0019 J0.0191
N16725 G1 X0.9124 Y-0.4856
N16730 G3 X0.9076 Y-0.4591 Z-0.198 I-0.0158 J0.0108
N16735 G1 X0.9018 Y-0.4551
N16740 X0.8961 Y-0.4511
N16745 X0.8914 Y-0.4476
N16750 X0.8836 Y-0.4419
N16755 X0.8788 Y-0.4375
N16760 X0.8731 Y-0.4321
N16765 X0.8714 Y-0.4304
N16770 X0.8599 Y-0.4189
N16775 X0.8559 Y-0.4142
N16780 X0.855 Y-0.4132
N16785 X0.8499 Y-0.4075
N16790 X0.8441 Y-0.4021
N16795 X0.8367 Y-0.3965
N16800 X0.8281 Y-0.3911
N16805 X0.8176 Y-0.3858
N16810 X0.8051 Y-0.3808
N16815 X0.7901 Y-0.3765
N16820 X0.7737 Y-0.3734
N16825 X0.7571 Y-0.3717
N16830 X0.7404 Y-0.3713
N16835 X0.7238 Y-0.372
N16840 X0.7072 Y-0.3738
N16845 X0.6907 Y-0.3765
N16850 X0.6745 Y-0.3805
N16855 X0.6632 Y-0.3844
N16860 X0.6552 Y-0.3883
N16865 X0.6485 Y-0.394
N16870 X0.6433 Y-0.4012
N16875 X0.6401 Y-0.4094
N16880 X0.639 Y-0.4182
N16885 Y-0.4878
N16890 Y-0.4935
N16895 X0.6389 Y-0.499
N16900 G3 X0.6586 Y-0.5177 Z-0.19 I0.0191 J0.0005
N16905 G1 X0.662 Y-0.5173
N16910 X0.6653 Y-0.5163
N16915 X0.8469 Y-0.4425
N16920 X0.8492 Y-0.4414
N16925 X0.8513 Y-0.44
N16930 X0.8514 Y-0.4399
N16935 G3 X0.855 Y-0.4132 Z-0.198 I-0.0117 J0.0152
N16940 G1 X0.8501 Y-0.4071
N16945 X0.8461 Y-0.4017
N16950 X0.8381 Y-0.3902
N16955 X0.8343 Y-0.3845
N16960 X0.8329 Y-0.3824
N16965 X0.8309 Y-0.3788
N16970 X0.8271 Y-0.3716
N16975 X0.825 Y-0.3673
N16980 X0.8213 Y-0.3603
N16985 X0.8175 Y-0.3544
N16990 X0.8129 Y-0.3486
N16995 X0.8068 Y-0.3423
N17000 X0.7997 Y-0.3362
N17005 X0.791 Y-0.33
N17010 X0.7805 Y-0.3239
N17015 X0.7686 Y-0.3184
N17020 X0.7547 Y-0.3135
N17025 X0.7389 Y-0.3095
N17030 X0.7224 Y-0.307
N17035 X0.7064 Y-0.306
N17040 X0.6916 Y-0.3065
N17045 X0.6781 Y-0.3083
N17050 X0.6657 Y-0.3111
N17055 X0.6637 Y-0.3117
N17060 X0.6556 Y-0.3155
N17065 X0.6487 Y-0.3212
N17070 X0.6434 Y-0.3285
N17075 X0.6401 Y-0.3368
N17080 X0.639 Y-0.3457
N17085 Y-0.4182
N17090 G3 X0.6588 Y-0.4367 Z-0.19 I0.0191 J0.0007
N17095 G1 X0.6611 Y-0.4365
N17100 X0.6634 Y-0.436
N17105 X0.8127 Y-0.3932
N17110 X0.8149 Y-0.3924
N17115 X0.8151 Y-0.3923
N17120 G3 X0.825 Y-0.3673 Z-0.198 I-0.0077 J0.0175
N17125 G1 X0.8214 Y-0.3595
N17130 X0.8197 Y-0.3558
N17135 X0.8157 Y-0.3467
N17140 X0.8148 Y-0.3443
N17145 X0.8128 Y-0.3386
N17150 X0.8111 Y-0.3329
N17155 X0.8081 Y-0.3214
N17160 X0.8065 Y-0.3156
N17165 X0.8051 Y-0.3107
N17170 X0.8027 Y-0.3048
N17175 X0.7995 Y-0.2985
N17180 X0.7954 Y-0.292
N17185 X0.79 Y-0.2851
N17190 X0.7836 Y-0.2783
N17195 X0.7758 Y-0.2714
N17200 X0.7667 Y-0.2648
N17205 X0.7566 Y-0.2587
N17210 X0.7449 Y-0.2532
N17215 X0.7321 Y-0.2485
N17220 X0.7193 Y-0.2451
N17225 X0.7067 Y-0.243
N17230 X0.6945 Y-0.2421
N17235 X0.6831 Y-0.2423
N17240 X0.6717 Y-0.2437
N17245 X0.6674 Y-0.2446
N17250 X0.6582 Y-0.2478
N17255 X0.6503 Y-0.2535
N17260 X0.6442 Y-0.261
N17265 X0.6403 Y-0.2699
N17270 X0.639 Y-0.2796
N17275 Y-0.3457
N17280 G3 X0.6588 Y-0.3642 Z-0.19 I0.0191 J0.0007
N17285 G1 X0.6618 Y-0.3638
N17290 X0.7915 Y-0.3383
N17295 X0.7917 Y-0.3382
N17300 X0.7918
N17305 G3 X0.8065 Y-0.3156 Z-0.198 I-0.004 J0.0187
N17310 G1 X0.8052 Y-0.3099
N17315 X0.8041 Y-0.3042
N17320 X0.8032 Y-0.2984
N17325 X0.8026 Y-0.2927
N17330 X0.8021 Y-0.2869
N17335 X0.8015 Y-0.2812
N17340 X0.8011 Y-0.2755
N17345 X0.8008 Y-0.2697
N17350 X0.8001 Y-0.2624
N17355 X0.7989 Y-0.2566
N17360 X0.7971 Y-0.2504
N17365 X0.7945 Y-0.2437
N17370 X0.7909 Y-0.2367
N17375 X0.7864 Y-0.2295
N17380 X0.7807 Y-0.222
N17385 X0.774 Y-0.2149
N17390 X0.766 Y-0.2077
N17395 X0.7568 Y-0.201
N17400 X0.7468 Y-0.1949
N17405 X0.7355 Y-0.1895
N17410 X0.7244 Y-0.1854
N17415 X0.7125 Y-0.1822
N17420 X0.7014 Y-0.1803
N17425 X0.6907 Y-0.1794
N17430 X0.6796 Y-0.1796
N17435 X0.6697 Y-0.1807
N17440 X0.6675 Y-0.1812
N17445 X0.6583 Y-0.1844
N17450 X0.6504 Y-0.19
N17455 X0.6442 Y-0.1976
N17460 X0.6403 Y-0.2065
N17465 X0.639 Y-0.2162
N17470 Y-0.2796
N17475 G3 X0.6588 Y-0.298 Z-0.19 I0.0191 J0.0007
N17480 G1 X0.6595
N17485 X0.7819 Y-0.2891
N17490 X0.782
N17495 X0.783 Y-0.289 Z-0.1903
N17500 G3 X0.8008 Y-0.2697 Z-0.198 I-0.0014 J0.0191
N17505 G1 X0.8005 Y-0.264
N17510 Y-0.2123
N17515 X0.8002 Y-0.2061
N17520 X0.7993 Y-0.2001
N17525 X0.7977 Y-0.1933
N17530 X0.7953 Y-0.1865
N17535 X0.792 Y-0.179
N17540 X0.7877 Y-0.1715
N17545 X0.7824 Y-0.1638
N17550 X0.7758 Y-0.1561
N17555 X0.7683 Y-0.1487
N17560 X0.7596 Y-0.1417
N17565 X0.7497 Y-0.1351
N17570 X0.7388 Y-0.1291
N17575 X0.7278 Y-0.1245
N17580 X0.7167 Y-0.1209
N17585 X0.7055 Y-0.1185
N17590 X0.6951 Y-0.1172
N17595 X0.684 Y-0.1168
N17600 X0.6738 Y-0.1175
N17605 X0.6692 Y-0.1182
N17610 X0.6595 Y-0.1212
N17615 X0.6511 Y-0.1267
N17620 X0.6446 Y-0.1344
N17625 X0.6404 Y-0.1436
N17630 X0.639 Y-0.1535
N17635 Y-0.2162
N17640 G3 X0.6587 Y-0.2347 Z-0.19 I0.0191 J0.0007
N17645 G1 X0.6588
N17650 X0.7807 Y-0.2308
N17655 X0.7809
N17660 X0.782 Z-0.1903
N17665 G3 X0.8005 Y-0.2123 Z-0.198 I-0.0006 J0.0191
N17670 G1 Y-0.1492
N17675 X0.8003 Y-0.1446
N17680 X0.7993 Y-0.1382
N17685 X0.7978 Y-0.1316
N17690 X0.7952 Y-0.1243
N17695 X0.7919 Y-0.1169
N17700 X0.7875 Y-0.1091
N17705 X0.7821 Y-0.1013
N17710 X0.7756 Y-0.0937
N17715 X0.7679 Y-0.0862
N17720 X0.7591 Y-0.079
N17725 X0.7493 Y-0.0724
N17730 X0.7385 Y-0.0666
N17735 X0.7278 Y-0.0621
N17740 X0.7162 Y-0.0584
N17745 X0.7053 Y-0.056
N17750 X0.6948 Y-0.0547
N17755 X0.6838 Y-0.0543
N17760 X0.6739 Y-0.055
N17765 X0.6692 Y-0.0557
N17770 X0.6595 Y-0.0587
N17775 X0.6511 Y-0.0642
N17780 X0.6446 Y-0.0719
N17785 X0.6404 Y-0.0811
N17790 X0.639 Y-0.091
N17795 Y-0.1535
N17800 G3 X0.6588 Y-0.172 Z-0.19 I0.0191 J0.0007
N17805 G1 X0.7807 Y-0.1677
N17810 X0.7809
N17815 X0.782 Z-0.1904
N17820 G3 X0.8005 Y-0.1492 Z-0.198 I-0.0007 J0.0191
N17825 G1 Y-0.132
N17830 Y-0.1263
N17835 X0.801 Y-0.1148
N17840 X0.802 Y-0.1033
N17845 X0.8028 Y-0.0944
N17850 X0.803 Y-0.0894
N17855 Y-0.0879
N17860 Y-0.0864
N17865 Y-0.0849
N17870 Y-0.0834
N17875 X0.8029 Y-0.0819
N17880 X0.8027 Y-0.0804
N17885 X0.8026 Y-0.0789
N17890 X0.8024 Y-0.0775
N17895 X0.8021 Y-0.076
N17900 X0.8019 Y-0.0745
N17905 X0.8016 Y-0.073
N17910 X0.8013 Y-0.0716
N17915 X0.8009 Y-0.0701
N17920 X0.8006 Y-0.0686
N17925 X0.8002 Y-0.0672
N17930 X0.7997 Y-0.0658
N17935 X0.7993 Y-0.0643
N17940 X0.7988 Y-0.0629
N17945 X0.7983 Y-0.0615
N17950 X0.7978 Y-0.0601
N17955 X0.7972 Y-0.0587
N17960 X0.7966 Y-0.0573
N17965 X0.796 Y-0.0559
N17970 X0.7954 Y-0.0546
N17975 X0.7948 Y-0.0532
N17980 X0.7941 Y-0.0519
N17985 X0.7934 Y-0.0506
N17990 X0.7927 Y-0.0492
N17995 X0.792 Y-0.0479
N18000 X0.7912 Y-0.0466
N18005 X0.7904 Y-0.0453
N18010 X0.7897 Y-0.0441
N18015 X0.7888 Y-0.0428
N18020 X0.788 Y-0.0415
N18025 X0.7872 Y-0.0403
N18030 X0.7863 Y-0.0391
N18035 X0.7854 Y-0.0379
N18040 X0.7845 Y-0.0367
N18045 X0.7836 Y-0.0355
N18050 X0.7827 Y-0.0343
N18055 X0.7817 Y-0.0331
N18060 X0.7808 Y-0.032
N18065 X0.7798 Y-0.0308
N18070 X0.7788 Y-0.0297
N18075 X0.7778 Y-0.0286
N18080 X0.7768 Y-0.0275
N18085 X0.7758 Y-0.0264
N18090 X0.7747 Y-0.0254
N18095 X0.7736 Y-0.0243
N18100 X0.7726 Y-0.0232
N18105 X0.7715 Y-0.0222
N18110 X0.7704 Y-0.0212
N18115 X0.7693 Y-0.0202
N18120 X0.7681 Y-0.0192
N18125 X0.767 Y-0.0182
N18130 X0.7658 Y-0.0173
N18135 X0.7647 Y-0.0163
N18140 X0.7635 Y-0.0154
N18145 X0.7623 Y-0.0145
N18150 X0.7611 Y-0.0136
N18155 X0.7599 Y-0.0127
N18160 X0.7587 Y-0.0118
N18165 X0.7575 Y-0.0109
N18170 X0.7562 Y-0.0101
N18175 X0.755 Y-0.0093
N18180 X0.7537 Y-0.0084
N18185 X0.7525 Y-0.0076
N18190 X0.7512 Y-0.0069
N18195 X0.7499 Y-0.0061
N18200 X0.7486 Y-0.0053
N18205 X0.7473 Y-0.0046
N18210 X0.746 Y-0.0038
N18215 X0.7447 Y-0.0031
N18220 X0.7433 Y-0.0024
N18225 X0.742 Y-0.0017
N18230 X0.7407 Y-0.0011
N18235 X0.7393 Y-0.0004
N18240 X0.738 Y0.0002
N18245 X0.7366 Y0.0009
N18250 X0.7352 Y0.0015
N18255 X0.7339 Y0.0021
N18260 X0.7325 Y0.0027
N18265 X0.7311 Y0.0032
N18270 X0.7297 Y0.0038
N18275 X0.7283 Y0.0043
N18280 X0.7269 Y0.0048
N18285 X0.7255 Y0.0053
N18290 X0.724 Y0.0058
N18295 X0.7226 Y0.0062
N18300 X0.7212 Y0.0067
N18305 X0.7197 Y0.0071
N18310 X0.7183 Y0.0075
N18315 X0.7169 Y0.0079
N18320 X0.7154 Y0.0083
N18325 X0.7139 Y0.0087
N18330 X0.7125 Y0.009
N18335 X0.711 Y0.0094
N18340 X0.7096 Y0.0097
N18345 X0.7081 Y0.01
N18350 X0.7066 Y0.0102
N18355 X0.7051 Y0.0105
N18360 X0.7037 Y0.0107
N18365 X0.7022 Y0.011
N18370 X0.7007 Y0.0112
N18375 X0.6992 Y0.0113
N18380 X0.6977 Y0.0115
N18385 X0.6962 Y0.0116
N18390 X0.6947 Y0.0118
N18395 X0.6932 Y0.0119
N18400 X0.6917 Y0.012
N18405 X0.6902
N18410 X0.6887 Y0.0121
N18415 X0.6872
N18420 X0.6857
N18425 X0.6842
N18430 X0.6827
N18435 X0.6812
N18440 X0.6797 Y0.012
N18445 X0.6782 Y0.0119
N18450 X0.6767 Y0.0118
N18455 X0.6752 Y0.0117
N18460 X0.6737 Y0.0115
N18465 X0.6723 Y0.0114
N18470 X0.6708 Y0.0112
N18475 X0.6698 Y0.0111
N18480 X0.66 Y0.0082
N18485 X0.6514 Y0.0027
N18490 X0.6447 Y-0.005
N18495 X0.6405 Y-0.0142
N18500 X0.639 Y-0.0243
N18505 Y-0.091
N18510 G3 X0.6423 Y-0.1011 I0.0191 J0.0007
N18515 G1 X0.6442 Y-0.1029 Z-0.1978
N18520 X0.646 Y-0.1047 Z-0.1973
N18525 X0.6478 Y-0.1065 Z-0.1964
N18530 X0.6505 Y-0.1075 Z-0.1948
N18535 X0.6529 Y-0.1084 Z-0.1927
N18540 X0.6549 Y-0.1092 Z-0.1902
N18545 X0.6567 Y-0.1094 Z-0.1872
N18550 X0.6579 Y-0.1095 Z-0.184
N18555 X0.6584 Z-0.1815
N18560 X0.6586 Z-0.1789
N18565 G0 Z0.2
N18570 G1 X0.4757 Y0.6663 F500.
N18575 G0 Z-0.1987
N18580 G1 Z-0.2178 F60.
N18585 X0.4759 Y0.6661 Z-0.2212
N18590 X0.4766 Y0.6656 Z-0.2244
N18595 X0.4777 Y0.6647 Z-0.2274
N18600 X0.4791 Y0.6634 Z-0.2302
N18605 X0.4809 Y0.6619 Z-0.2325
N18610 X0.483 Y0.6602 Z-0.2344
N18615 X0.4854 Y0.6582 Z-0.2358
N18620 X0.4878 Y0.6562 Z-0.2367
N18625 X0.4904 Y0.654 Z-0.237
N18630 G3 X0.578 Y0.5956 I0.3135 J0.3752
N18635 G1 X0.5802 Y0.5946
N18640 X0.5859 Y0.5917
N18645 X0.5869 Y0.5911
N18650 X0.5916 Y0.5881
N18655 X0.5956 Y0.5854
N18660 X0.6031 Y0.5794
N18665 X0.6087 Y0.5739
N18670 X0.6141 Y0.5681
N18675 X0.6151 Y0.567
N18680 X0.6227 Y0.5604
N18685 X0.6326 Y0.5532
N18690 X0.6455 Y0.5456
N18695 X0.6606 Y0.5385
N18700 X0.6763 Y0.5327
N18705 X0.6923 Y0.5279
N18710 X0.7085 Y0.524
N18715 X0.7249 Y0.5207
N18720 X0.7413 Y0.5181
N18725 X0.7575 Y0.5138
N18730 X0.7731 Y0.508
N18735 X0.7882 Y0.501
N18740 X0.8029 Y0.4931
N18745 X0.8172 Y0.4844
N18750 X0.8311 Y0.4752
N18755 X0.8447 Y0.4654
N18760 X0.8579 Y0.4553
N18765 X0.871 Y0.4449
N18770 X0.8838 Y0.4343
N18775 X0.8965 Y0.4234
N18780 X0.909 Y0.4124
N18785 X0.9214 Y0.4012
N18790 X0.9337 Y0.3899
N18795 X0.9459 Y0.3785
N18800 X0.958 Y0.3671
N18805 X0.9701 Y0.3556
N18810 X0.9822 Y0.344
N18815 X0.9942 Y0.3324
N18820 X1.0061 Y0.3208
N18825 X1.0181 Y0.3091
N18830 X1.03 Y0.2974
N18835 X1.0418 Y0.2857
N18840 X1.0536 Y0.2739
N18845 X1.0654 Y0.2621
N18850 X1.0771 Y0.2502
N18855 X1.0887 Y0.2382
N18860 X1.1002 Y0.2261
N18865 X1.1116 Y0.2139
N18870 X1.1228 Y0.2016
N18875 X1.1338 Y0.189
N18880 X1.1446 Y0.1763
N18885 X1.1552 Y0.1634
N18890 X1.1656 Y0.1503
N18895 X1.1757 Y0.1371
N18900 X1.1857 Y0.1237
N18905 X1.1955 Y0.1102
N18910 X1.2051 Y0.0966
N18915 X1.2143 Y0.0826
N18920 X1.2233 Y0.0685
N18925 X1.2319 Y0.0543
N18930 X1.2404 Y0.0399
N18935 X1.2487 Y0.0254
N18940 X1.2568 Y0.0109
N18945 X1.2647 Y-0.0039
N18950 X1.2722 Y-0.0188
N18955 X1.2793 Y-0.0339
N18960 X1.2861 Y-0.0491
N18965 X1.2927 Y-0.0644
N18970 X1.2991 Y-0.0798
N18975 X1.3053 Y-0.0953
N18980 X1.3113 Y-0.1109
N18985 X1.3169 Y-0.1266
N18990 X1.3221 Y-0.1425
N18995 X1.3269 Y-0.1585
N19000 X1.3315 Y-0.1745
N19005 X1.3358 Y-0.1906
N19010 X1.3399 Y-0.2068
N19015 X1.3437 Y-0.2231
N19020 X1.3472 Y-0.2394
N19025 X1.3504 Y-0.2557
N19030 X1.3532 Y-0.2722
N19035 X1.3557 Y-0.2887
N19040 X1.3579 Y-0.3052
N19045 X1.3598 Y-0.3218
N19050 X1.3614 Y-0.3384
N19055 X1.3628 Y-0.3551
N19060 X1.364 Y-0.3717
N19065 X1.365 Y-0.3884
N19070 X1.3658 Y-0.405
N19075 X1.3651 Y-0.4133
N19080 X1.3625 Y-0.4213
N19085 X1.3538 Y-0.4355
N19090 X1.3421 Y-0.4474
N19095 X1.3287 Y-0.4574
N19100 X1.3142 Y-0.4656
N19105 X1.299 Y-0.4725
N19110 X1.2833 Y-0.4782
N19115 X1.2673 Y-0.4829
N19120 X1.2511 Y-0.4869
N19125 X1.2347 Y-0.4901
N19130 X1.2183 Y-0.4928
N19135 X1.2017 Y-0.495
N19140 X1.1852 Y-0.4968
N19145 X1.1685 Y-0.4984
N19150 X1.1519 Y-0.4996
N19155 X1.1352 Y-0.5006
N19160 X1.1186 Y-0.5015
N19165 X1.1019 Y-0.5022
N19170 X1.0852 Y-0.5028
N19175 X1.0685 Y-0.5033
N19180 X1.0519 Y-0.5037
N19185 X1.0352 Y-0.504
N19190 X1.0185 Y-0.5043
N19195 X1.0018 Y-0.5045
N19200 X0.9851 Y-0.5047
N19205 X0.9684 Y-0.5048
N19210 X0.9518 Y-0.505
N19215 X0.9351 Y-0.5051
N19220 X0.9184
N19225 X0.9017 Y-0.5052
N19230 X0.885 Y-0.5053
N19235 X0.8516 Y-0.5054
N19240 X0.8183
N19245 X0.7682 Y-0.5055
N19250 X0.7348
N19255 X0.6684
N19260 X0.6594 Y-0.5067
N19265 X0.651 Y-0.5101
N19270 X0.6437 Y-0.5154
N19275 X0.638 Y-0.5224
N19280 X0.6343 Y-0.5307
N19285 G3 X0.6347 Y-0.5422 I0.0185 J-0.0051
N19290 G1 X0.6361 Y-0.5445 Z-0.2368
N19295 X0.6375 Y-0.5467 Z-0.2363
N19300 X0.6388 Y-0.5488 Z-0.2354
N19305 X0.6411 Y-0.5505 Z-0.2338
N19310 X0.6432 Y-0.552 Z-0.2317
N19315 X0.645 Y-0.5532 Z-0.2292
N19320 X0.6465 Y-0.5537 Z-0.2266
N19325 X0.6476 Y-0.5541 Z-0.2238
N19330 X0.6483 Y-0.5543 Z-0.2209
N19335 X0.6485 Y-0.5544 Z-0.2179
N19340 G0 Z0.2
N19345 G1 X0.7816 Y-0.1111 F500.
N19350 G0 Z-0.1709
N19355 G1 Z-0.19 F60.
N19360 X0.7835 Z-0.1906
N19365 G3 X0.8028 Y-0.0944 Z-0.198 I0.0002 J0.0191
N19370 G1 X0.803 Y-0.0918
N19375 X0.8039 Y-0.0861
N19380 X0.8049 Y-0.0803
N19385 X0.8063 Y-0.0746
N19390 X0.8078 Y-0.0689
N19395 X0.8109 Y-0.0574
N19400 X0.8125 Y-0.0516
N19405 X0.8144 Y-0.0459
N19410 X0.8157 Y-0.0427
N19415 X0.8193 Y-0.0344
N19420 X0.8214 Y-0.0297
N19425 X0.8246 Y-0.023
N19430 X0.8271 Y-0.0177
N19435 X0.8303 Y-0.0115
N19440 X0.8329 Y-0.007
N19445 X0.8337 Y-0.0057
N19450 X0.8374 Y0.
N19455 X0.8454 Y0.0115
N19460 X0.8496 Y0.0172
N19465 X0.8559 Y0.0253
N19470 X0.859 Y0.0287
N19475 X0.8616 Y0.0314
N19480 X0.8704 Y0.0402
N19485 X0.8731 Y0.0429
N19490 X0.8788 Y0.0485
N19495 X0.8824 Y0.0516
N19500 X0.8846 Y0.0534
N19505 X0.8903 Y0.0577
N19510 X0.8961 Y0.0619
N19515 X0.9061 Y0.0689
N19520 G3 X0.9127 Y0.0771 I-0.011 J0.0157
N19525 G1 X0.9133 Y0.0796 Z-0.1978
N19530 X0.9138 Y0.0821 Z-0.1973
N19535 X0.9143 Y0.0846 Z-0.1964
N19540 X0.9137 Y0.0874 Z-0.1948
N19545 X0.9132 Y0.0899 Z-0.1927
